; generated by PrusaSlicer 2.2.0+win64 on 2020-04-07 at 00:15:07 UTC

; 

; external perimeters extrusion width = 0.60mm
; perimeters extrusion width = 0.43mm
; infill extrusion width = 0.45mm
; solid infill extrusion width = 0.70mm
; top infill extrusion width = 0.43mm
; first layer extrusion width = 0.42mm

; external perimeters extrusion width = 0.60mm
; perimeters extrusion width = 0.43mm
; infill extrusion width = 0.45mm
; solid infill extrusion width = 0.70mm
; top infill extrusion width = 0.43mm
; first layer extrusion width = 0.42mm

M73 P0 R154
M201 X9000 Y9000 Z500 E10000 ; sets maximum accelerations, mm/sec^2
M203 X500 Y500 Z12 E120 ; sets maximum feedrates, mm/sec
M204 P2000 R1500 T2000 ; sets acceleration (P, T) and retract acceleration (R), mm/sec^2
M205 X10.00 Y10.00 Z0.20 E2.50 ; sets the jerk limits, mm/sec
M205 S0 T0 ; sets the minimum extruding and travel feed rate, mm/sec
M107
M862.3 P "MK2S" ; printer model check
M862.1 P0.4 ; nozzle diameter check
M115 U3.2.3 ; tell printer latest fw version
G90 ; use absolute coordinates
M83 ; extruder relative mode
M204 S2000 T1500 ; MK2 firmware only supports the old M204 format
M104 S230 ; set extruder temp
M140 S85 ; set bed temp
M190 S85 ; wait for bed temp
M109 S230 ; wait for extruder temp
G28 W ; home all without mesh bed level
G80 ; mesh bed leveling
G1 Y-3.0 F1000.0 ; go outside print area
G92 E0.0
G1 X60.0 E9.0  F1000.0 ; intro line
M73 P0 R154
G1 X100.0 E12.5 F1000.0 ; intro line
G92 E0.0
G21 ; set units to millimeters
G90 ; use absolute coordinates
M83 ; use relative distances for extrusion
M900 K45 ; Filament gcode
;BEFORE_LAYER_CHANGE
G92 E0.0
;0.2


G1 E-1.40000 F2100.00000
G1 Z0.200 F10800.000
;AFTER_LAYER_CHANGE
;0.2
G1 Z0.400
G1 X25.235 Y36.425
G1 Z0.200
G1 E1.40000 F2100.00000
M204 S1000
G1 F1200.000
G1 X25.682 Y35.695 E0.02684
G1 X26.049 Y35.363 E0.01550
G1 X26.476 Y35.114 E0.01550
G1 X26.941 Y34.960 E0.01538
G1 X27.432 Y34.904 E0.01550
G1 X112.738 Y34.904 E2.67470
G1 X216.570 Y35.406 E3.25560
G1 X217.421 Y35.574 E0.02720
G1 X218.155 Y36.036 E0.02720
G1 X218.477 Y36.400 E0.01526
G1 X218.719 Y36.827 E0.01538
G1 X218.868 Y37.290 E0.01526
G1 X218.920 Y37.778 E0.01538
G1 X218.920 Y130.798 E2.91658
G1 X218.755 Y131.653 E0.02731
G1 X218.290 Y132.394 E0.02743
G1 X217.506 Y132.956 E0.03024
G1 X216.563 Y133.160 E0.03024
G1 X131.257 Y133.160 E2.67470
G1 X27.426 Y132.658 E3.25560
G1 X26.575 Y132.491 E0.02720
G1 X25.841 Y132.029 E0.02720
G1 X25.519 Y131.664 E0.01526
G1 X25.276 Y131.237 E0.01538
G1 X25.127 Y130.774 E0.01526
G1 X25.075 Y130.286 E0.01538
G1 X25.075 Y37.266 E2.91658
G1 X25.224 Y36.484 E0.02496
G1 F8640.000
G1 X25.682 Y35.695 E-0.21070
G1 X26.049 Y35.363 E-0.11413
G1 X26.476 Y35.114 E-0.11413
G1 X26.941 Y34.960 E-0.11325
G1 X27.432 Y34.904 E-0.11413
G1 X30.307 Y34.904 E-0.66366
G1 E-0.07000 F2100.00000
G1 Z0.400 F10800.000
G1 X132.965 Y38.570
G1 Z0.200
G1 E1.40000 F2100.00000
G1 F1200.000
G1 X214.839 Y38.570 E2.56709
G1 X214.839 Y44.196 E0.17639
G1 X212.613 Y44.196 E0.06978
G1 X212.613 Y47.270 E0.09639
G1 X214.839 Y47.270 E0.06978
G1 X214.839 Y47.296 E0.00081
G1 X212.613 Y47.296 E0.06978
G1 X212.613 Y50.370 E0.09639
G1 X214.839 Y50.370 E0.06978
G1 X214.839 Y50.396 E0.00081
G1 X212.613 Y50.396 E0.06978
G1 X212.613 Y53.470 E0.09639
G1 X214.839 Y53.470 E0.06978
G1 X214.839 Y53.496 E0.00081
G1 X212.613 Y53.496 E0.06978
G1 X212.613 Y56.570 E0.09639
G1 X214.839 Y56.570 E0.06978
G1 X214.839 Y56.596 E0.00081
G1 X212.613 Y56.596 E0.06978
G1 X212.613 Y59.670 E0.09639
G1 X214.839 Y59.670 E0.06978
G1 X214.839 Y59.696 E0.00081
G1 X212.613 Y59.696 E0.06978
G1 X212.613 Y62.770 E0.09639
G1 X214.839 Y62.770 E0.06978
G1 X214.839 Y62.796 E0.00081
G1 X212.613 Y62.796 E0.06978
G1 X212.613 Y65.870 E0.09639
G1 X214.839 Y65.870 E0.06978
G1 X214.839 Y65.896 E0.00081
G1 X212.613 Y65.896 E0.06978
G1 X212.613 Y68.970 E0.09639
G1 X214.839 Y68.970 E0.06978
G1 X214.839 Y99.596 E0.96025
G1 X212.613 Y99.596 E0.06978
G1 X212.613 Y102.670 E0.09639
G1 X214.839 Y102.670 E0.06978
G1 X214.839 Y102.696 E0.00081
G1 X212.613 Y102.696 E0.06978
G1 X212.613 Y105.770 E0.09639
G1 X214.839 Y105.770 E0.06978
G1 X214.839 Y105.796 E0.00081
G1 X212.613 Y105.796 E0.06978
G1 X212.613 Y108.870 E0.09639
G1 X214.839 Y108.870 E0.06978
G1 X214.839 Y108.896 E0.00081
G1 X212.613 Y108.896 E0.06978
G1 X212.613 Y111.970 E0.09639
G1 X214.839 Y111.970 E0.06978
G1 X214.839 Y111.996 E0.00081
G1 X212.613 Y111.996 E0.06978
G1 X212.613 Y115.070 E0.09639
G1 X214.839 Y115.070 E0.06978
G1 X214.839 Y115.096 E0.00081
G1 X212.613 Y115.096 E0.06978
G1 X212.613 Y118.170 E0.09639
G1 X214.839 Y118.170 E0.06978
G1 X214.839 Y118.196 E0.00081
G1 X212.613 Y118.196 E0.06978
G1 X212.613 Y121.270 E0.09639
G1 X214.839 Y121.270 E0.06978
G1 X214.839 Y121.296 E0.00081
G1 X212.613 Y121.296 E0.06978
G1 X212.613 Y124.370 E0.09639
G1 X214.839 Y124.370 E0.06978
G1 X214.839 Y129.996 E0.17639
G1 X132.965 Y129.996 E2.56709
G1 X132.965 Y124.370 E0.17639
G1 X135.191 Y124.370 E0.06978
G1 X135.191 Y121.296 E0.09639
G1 X132.965 Y121.296 E0.06978
G1 X132.965 Y121.270 E0.00081
G1 X135.191 Y121.270 E0.06978
G1 X135.191 Y118.196 E0.09639
G1 X132.965 Y118.196 E0.06978
G1 X132.965 Y118.170 E0.00081
G1 X135.191 Y118.170 E0.06978
G1 X135.191 Y115.096 E0.09639
G1 X132.965 Y115.096 E0.06978
G1 X132.965 Y115.070 E0.00081
G1 X135.191 Y115.070 E0.06978
G1 X135.191 Y111.996 E0.09639
G1 X132.965 Y111.996 E0.06978
G1 X132.965 Y111.970 E0.00081
G1 X135.191 Y111.970 E0.06978
G1 X135.191 Y108.896 E0.09639
G1 X132.965 Y108.896 E0.06978
G1 X132.965 Y108.870 E0.00081
G1 X135.191 Y108.870 E0.06978
G1 X135.191 Y105.796 E0.09639
G1 X132.965 Y105.796 E0.06978
G1 X132.965 Y105.770 E0.00081
G1 X135.191 Y105.770 E0.06978
G1 X135.191 Y102.696 E0.09639
G1 X132.965 Y102.696 E0.06978
G1 X132.965 Y102.670 E0.00081
G1 X135.191 Y102.670 E0.06978
G1 X135.191 Y99.596 E0.09639
G1 X132.965 Y99.596 E0.06978
G1 X132.965 Y68.970 E0.96025
G1 X135.191 Y68.970 E0.06978
G1 X135.191 Y65.896 E0.09639
G1 X132.965 Y65.896 E0.06978
G1 X132.965 Y65.870 E0.00081
G1 X135.191 Y65.870 E0.06978
G1 X135.191 Y62.796 E0.09639
G1 X132.965 Y62.796 E0.06978
G1 X132.965 Y62.770 E0.00081
G1 X135.191 Y62.770 E0.06978
G1 X135.191 Y59.696 E0.09639
G1 X132.965 Y59.696 E0.06978
G1 X132.965 Y59.670 E0.00081
G1 X135.191 Y59.670 E0.06978
G1 X135.191 Y56.596 E0.09639
G1 X132.965 Y56.596 E0.06978
G1 X132.965 Y56.570 E0.00081
G1 X135.191 Y56.570 E0.06978
G1 X135.191 Y53.496 E0.09639
G1 X132.965 Y53.496 E0.06978
G1 X132.965 Y53.470 E0.00081
G1 X135.191 Y53.470 E0.06978
G1 X135.191 Y50.396 E0.09639
G1 X132.965 Y50.396 E0.06978
G1 X132.965 Y50.370 E0.00081
G1 X135.191 Y50.370 E0.06978
G1 X135.191 Y47.296 E0.09639
G1 X132.965 Y47.296 E0.06978
G1 X132.965 Y47.270 E0.00081
G1 X135.191 Y47.270 E0.06978
G1 X135.191 Y44.196 E0.09639
G1 X132.965 Y44.196 E0.06978
G1 X132.965 Y38.630 E0.17451
G1 F8640.000
G1 X138.725 Y38.626 E-1.33000
G1 E-0.07000 F2100.00000
G1 Z0.400 F10800.000
G1 X212.990 Y44.573
G1 Z0.200
G1 E1.40000 F2100.00000
G1 F1200.000
G1 X212.990 Y46.893 E0.07274
G1 X215.216 Y46.893 E0.06978
G1 X215.216 Y47.673 E0.02446
G1 X212.990 Y47.673 E0.06978
G1 X212.990 Y49.993 E0.07274
G1 X215.216 Y49.993 E0.06978
G1 X215.216 Y50.773 E0.02446
G1 X212.990 Y50.773 E0.06978
G1 X212.990 Y53.093 E0.07274
M73 P0 R153
G1 X215.216 Y53.093 E0.06978
G1 X215.216 Y53.873 E0.02446
G1 X212.990 Y53.873 E0.06978
G1 X212.990 Y56.193 E0.07274
G1 X215.216 Y56.193 E0.06978
G1 X215.216 Y56.973 E0.02446
G1 X212.990 Y56.973 E0.06978
G1 X212.990 Y59.293 E0.07274
G1 X215.216 Y59.293 E0.06978
G1 X215.216 Y60.073 E0.02446
G1 X212.990 Y60.073 E0.06978
G1 X212.990 Y62.393 E0.07274
G1 X215.216 Y62.393 E0.06978
G1 X215.216 Y63.173 E0.02446
G1 X212.990 Y63.173 E0.06978
G1 X212.990 Y65.493 E0.07274
G1 X215.216 Y65.493 E0.06978
G1 X215.216 Y66.273 E0.02446
G1 X212.990 Y66.273 E0.06978
G1 X212.990 Y68.593 E0.07274
G1 X215.216 Y68.593 E0.06978
G1 X215.216 Y99.973 E0.98390
G1 X212.990 Y99.973 E0.06978
G1 X212.990 Y102.293 E0.07274
G1 X215.216 Y102.293 E0.06978
G1 X215.216 Y103.073 E0.02446
G1 X212.990 Y103.073 E0.06978
G1 X212.990 Y105.393 E0.07274
G1 X215.216 Y105.393 E0.06978
G1 X215.216 Y106.173 E0.02446
G1 X212.990 Y106.173 E0.06978
G1 X212.990 Y108.493 E0.07274
G1 X215.216 Y108.493 E0.06978
G1 X215.216 Y109.273 E0.02446
G1 X212.990 Y109.273 E0.06978
G1 X212.990 Y111.593 E0.07274
G1 X215.216 Y111.593 E0.06978
G1 X215.216 Y112.373 E0.02446
G1 X212.990 Y112.373 E0.06978
G1 X212.990 Y114.693 E0.07274
G1 X215.216 Y114.693 E0.06978
G1 X215.216 Y115.473 E0.02446
G1 X212.990 Y115.473 E0.06978
G1 X212.990 Y117.793 E0.07274
G1 X215.216 Y117.793 E0.06978
G1 X215.216 Y118.573 E0.02446
G1 X212.990 Y118.573 E0.06978
G1 X212.990 Y120.893 E0.07274
G1 X215.216 Y120.893 E0.06978
G1 X215.216 Y121.673 E0.02446
G1 X212.990 Y121.673 E0.06978
G1 X212.990 Y123.993 E0.07274
G1 X215.216 Y123.993 E0.06978
G1 X215.216 Y130.373 E0.20004
G1 X132.588 Y130.373 E2.59074
G1 X132.588 Y123.993 E0.20004
G1 X134.814 Y123.993 E0.06978
G1 X134.814 Y121.673 E0.07274
G1 X132.588 Y121.673 E0.06978
G1 X132.588 Y120.893 E0.02446
G1 X134.814 Y120.893 E0.06978
G1 X134.814 Y118.573 E0.07274
G1 X132.588 Y118.573 E0.06978
G1 X132.588 Y117.793 E0.02446
G1 X134.814 Y117.793 E0.06978
G1 X134.814 Y115.473 E0.07274
G1 X132.588 Y115.473 E0.06978
G1 X132.588 Y114.693 E0.02446
G1 X134.814 Y114.693 E0.06978
G1 X134.814 Y112.373 E0.07274
G1 X132.588 Y112.373 E0.06978
G1 X132.588 Y111.593 E0.02446
G1 X134.814 Y111.593 E0.06978
G1 X134.814 Y109.273 E0.07274
G1 X132.588 Y109.273 E0.06978
G1 X132.588 Y108.493 E0.02446
G1 X134.814 Y108.493 E0.06978
G1 X134.814 Y106.173 E0.07274
G1 X132.588 Y106.173 E0.06978
G1 X132.588 Y105.393 E0.02446
G1 X134.814 Y105.393 E0.06978
G1 X134.814 Y103.073 E0.07274
G1 X132.588 Y103.073 E0.06978
G1 X132.588 Y102.293 E0.02446
G1 X134.814 Y102.293 E0.06978
G1 X134.814 Y99.973 E0.07274
G1 X132.588 Y99.973 E0.06978
G1 X132.588 Y68.593 E0.98390
G1 X134.814 Y68.593 E0.06978
G1 X134.814 Y66.273 E0.07274
G1 X132.588 Y66.273 E0.06978
G1 X132.588 Y65.493 E0.02446
G1 X134.814 Y65.493 E0.06978
G1 X134.814 Y63.173 E0.07274
G1 X132.588 Y63.173 E0.06978
G1 X132.588 Y62.393 E0.02446
G1 X134.814 Y62.393 E0.06978
G1 X134.814 Y60.073 E0.07274
G1 X132.588 Y60.073 E0.06978
G1 X132.588 Y59.293 E0.02446
G1 X134.814 Y59.293 E0.06978
G1 X134.814 Y56.973 E0.07274
G1 X132.588 Y56.973 E0.06978
G1 X132.588 Y56.193 E0.02446
G1 X134.814 Y56.193 E0.06978
G1 X134.814 Y53.873 E0.07274
G1 X132.588 Y53.873 E0.06978
G1 X132.588 Y53.093 E0.02446
G1 X134.814 Y53.093 E0.06978
G1 X134.814 Y50.773 E0.07274
G1 X132.588 Y50.773 E0.06978
G1 X132.588 Y49.993 E0.02446
G1 X134.814 Y49.993 E0.06978
G1 X134.814 Y47.673 E0.07274
G1 X132.588 Y47.673 E0.06978
G1 X132.588 Y46.893 E0.02446
G1 X134.814 Y46.893 E0.06978
G1 X134.814 Y44.573 E0.07274
G1 X132.588 Y44.573 E0.06978
G1 X132.588 Y38.193 E0.20004
G1 X215.216 Y38.193 E2.59074
G1 X215.216 Y44.573 E0.20004
G1 X213.050 Y44.573 E0.06790
G1 X212.624 Y44.733 F10800.000
G1 F8640.000
G1 X212.990 Y46.893 E-0.53587
G1 X215.216 Y46.893 E-0.51388
G1 X215.216 Y47.673 E-0.18011
G1 X214.782 Y47.673 E-0.10015
G1 E-0.07000 F2100.00000
G1 Z0.400 F10800.000
G1 X214.726 Y39.446
G1 Z0.200
G1 E1.40000 F2100.00000
G1 F1200.000
G1 X214.132 Y38.853 E0.02633
G1 X213.599 Y38.853 E0.01675
G1 X214.556 Y39.810 E0.04248
G1 X214.556 Y40.344 E0.01675
G1 X213.065 Y38.853 E0.06617
G1 X212.531 Y38.853 E0.01675
G1 X214.556 Y40.877 E0.08985
G1 X214.556 Y41.411 E0.01675
G1 X211.998 Y38.853 E0.11354
G1 X211.464 Y38.853 E0.01675
G1 X214.556 Y41.945 E0.13722
G1 X214.556 Y42.478 E0.01675
G1 X210.930 Y38.853 E0.16091
G1 X210.397 Y38.853 E0.01675
G1 X214.556 Y43.012 E0.18459
G1 X214.556 Y43.546 E0.01675
G1 X209.863 Y38.853 E0.20828
G1 X209.329 Y38.853 E0.01675
G1 X214.389 Y43.913 E0.22457
G1 X213.856 Y43.913 E0.01675
G1 X208.795 Y38.853 E0.22457
G1 X208.262 Y38.853 E0.01675
G1 X213.322 Y43.913 E0.22457
G1 X212.788 Y43.913 E0.01675
G1 X207.728 Y38.853 E0.22457
G1 X207.194 Y38.853 E0.01675
G1 X212.331 Y43.989 E0.22794
G1 X212.331 Y44.523 E0.01675
G1 X206.661 Y38.853 E0.25162
G1 X206.127 Y38.853 E0.01675
G1 X212.331 Y45.056 E0.27531
G1 X212.331 Y45.590 E0.01675
G1 X205.593 Y38.853 E0.29899
G1 X205.059 Y38.853 E0.01675
G1 X212.331 Y46.124 E0.32268
G1 X212.331 Y46.657 E0.01675
G1 X204.526 Y38.853 E0.34636
G1 X203.992 Y38.853 E0.01675
G1 X212.331 Y47.191 E0.37005
G1 X212.331 Y47.725 E0.01675
G1 X203.458 Y38.853 E0.39373
G1 X202.925 Y38.853 E0.01675
G1 X212.331 Y48.259 E0.41742
G1 X212.331 Y48.792 E0.01675
G1 X202.391 Y38.853 E0.44110
G1 X201.857 Y38.853 E0.01675
G1 X212.331 Y49.326 E0.46479
G1 X212.331 Y49.860 E0.01675
G1 X201.323 Y38.853 E0.48847
G1 X200.790 Y38.853 E0.01675
G1 X212.331 Y50.393 E0.51216
G1 X212.331 Y50.927 E0.01675
G1 X200.256 Y38.853 E0.53584
G1 X199.722 Y38.853 E0.01675
G1 X212.331 Y51.461 E0.55953
G1 X212.331 Y51.994 E0.01675
G1 X199.189 Y38.853 E0.58321
G1 X198.655 Y38.853 E0.01675
G1 X212.331 Y52.528 E0.60690
G1 X212.331 Y53.062 E0.01675
G1 X198.121 Y38.853 E0.63059
G1 X197.587 Y38.853 E0.01675
G1 X212.331 Y53.596 E0.65427
G1 X212.331 Y54.129 E0.01675
G1 X197.054 Y38.853 E0.67796
G1 X196.520 Y38.853 E0.01675
G1 X212.331 Y54.663 E0.70164
G1 X212.331 Y55.197 E0.01675
G1 X195.986 Y38.853 E0.72533
G1 X195.453 Y38.853 E0.01675
G1 X212.331 Y55.730 E0.74901
G1 X212.331 Y56.264 E0.01675
G1 X194.919 Y38.853 E0.77270
G1 X194.385 Y38.853 E0.01675
G1 X212.331 Y56.798 E0.79638
G1 X212.331 Y57.332 E0.01675
G1 X193.852 Y38.853 E0.82007
G1 X193.318 Y38.853 E0.01675
G1 X212.331 Y57.865 E0.84375
G1 X212.331 Y58.399 E0.01675
G1 X192.784 Y38.853 E0.86744
G1 X192.250 Y38.853 E0.01675
G1 X212.331 Y58.933 E0.89112
G1 X212.331 Y59.466 E0.01675
G1 X191.717 Y38.853 E0.91481
G1 X191.183 Y38.853 E0.01675
G1 X212.331 Y60.000 E0.93849
G1 X212.331 Y60.534 E0.01675
G1 X190.649 Y38.853 E0.96218
G1 X190.116 Y38.853 E0.01675
G1 X212.331 Y61.068 E0.98586
M73 P1 R152
G1 X212.331 Y61.601 E0.01675
G1 X189.582 Y38.853 E1.00955
G1 X189.048 Y38.853 E0.01675
G1 X212.331 Y62.135 E1.03323
G1 X212.331 Y62.669 E0.01675
G1 X188.514 Y38.853 E1.05692
G1 X187.981 Y38.853 E0.01675
G1 X212.331 Y63.202 E1.08060
G1 X212.331 Y63.736 E0.01675
G1 X187.447 Y38.853 E1.10429
G1 X186.913 Y38.853 E0.01675
G1 X212.331 Y64.270 E1.12797
G1 X212.331 Y64.804 E0.01675
G1 X186.380 Y38.853 E1.15166
G1 X185.846 Y38.853 E0.01675
G1 X212.331 Y65.337 E1.17534
G1 X212.331 Y65.871 E0.01675
G1 X185.312 Y38.853 E1.19903
G1 X184.778 Y38.853 E0.01675
G1 X212.331 Y66.405 E1.22271
G1 X212.331 Y66.938 E0.01675
G1 X184.245 Y38.853 E1.24640
G1 X183.711 Y38.853 E0.01675
G1 X212.331 Y67.472 E1.27008
G1 X212.331 Y68.006 E0.01675
G1 X183.177 Y38.853 E1.29377
G1 X182.644 Y38.853 E0.01675
G1 X212.500 Y68.709 E1.32498
G1 X212.874 Y69.083 F10800.000
G1 F1200.000
G1 X214.556 Y70.765 E0.07465
G1 X214.556 Y70.231 E0.01675
G1 X213.577 Y69.253 E0.04343
G1 X214.111 Y69.253 E0.01675
G1 X214.726 Y69.867 E0.02728
G1 F8640.000
G1 X214.111 Y69.253 E-0.20073
G1 X213.577 Y69.253 E-0.12324
G1 X214.556 Y70.231 E-0.31960
G1 X214.556 Y70.765 E-0.12324
G1 X212.874 Y69.083 E-0.54930
G1 E-0.08390 F2100.00000
G1 Z0.400 F10800.000
G1 X214.726 Y71.468
G1 Z0.200
G1 E1.40000 F2100.00000
G1 F1200.000
G1 X182.110 Y38.853 E1.44743
G1 X181.576 Y38.853 E0.01675
G1 X214.556 Y71.832 E1.46359
G1 X214.556 Y72.366 E0.01675
G1 X181.042 Y38.853 E1.48727
G1 X180.509 Y38.853 E0.01675
G1 X214.556 Y72.900 E1.51096
G1 X214.556 Y73.434 E0.01675
G1 X179.975 Y38.853 E1.53464
G1 X179.441 Y38.853 E0.01675
G1 X214.556 Y73.967 E1.55833
G1 X214.556 Y74.501 E0.01675
G1 X178.908 Y38.853 E1.58201
G1 X178.374 Y38.853 E0.01675
G1 X214.556 Y75.035 E1.60570
G1 X214.556 Y75.568 E0.01675
G1 X177.840 Y38.853 E1.62938
G1 X177.306 Y38.853 E0.01675
G1 X214.556 Y76.102 E1.65307
G1 X214.556 Y76.636 E0.01675
G1 X176.773 Y38.853 E1.67675
G1 X176.239 Y38.853 E0.01675
G1 X214.556 Y77.170 E1.70044
G1 X214.556 Y77.703 E0.01675
G1 X175.705 Y38.853 E1.72412
M73 P2 R151
G1 X175.172 Y38.853 E0.01675
G1 X214.556 Y78.237 E1.74781
G1 X214.556 Y78.771 E0.01675
G1 X174.638 Y38.853 E1.77149
G1 X174.104 Y38.853 E0.01675
G1 X214.556 Y79.304 E1.79518
