; generated by PrusaSlicer 2.1.0+win64 on 2019-11-23 at 19:58:30 UTC

; 

; external perimeters extrusion width = 0.45mm
; perimeters extrusion width = 0.45mm
; infill extrusion width = 0.45mm
; solid infill extrusion width = 0.45mm
; top infill extrusion width = 0.45mm
; first layer extrusion width = 0.42mm

M73 P0 R29
M201 X9000 Y9000 Z500 E10000 ; sets maximum accelerations, mm/sec^2
M203 X500 Y500 Z12 E120 ; sets maximum feedrates, mm/sec
M204 P2000 R1500 T2000 ; sets acceleration (P, T) and retract acceleration (R), mm/sec^2
M205 X10.00 Y10.00 Z0.20 E2.50 ; sets the jerk limits, mm/sec
M205 S0 T0 ; sets the minimum extruding and travel feed rate, mm/sec
M107
M862.3 P "MK2S" ; printer model check
M862.1 P0.4 ; nozzle diameter check
M115 U3.2.3 ; tell printer latest fw version
G90 ; use absolute coordinates
M83 ; extruder relative mode
M204 S2000 T1500 ; MK2 firmware only supports the old M204 format
M104 S215 ; set extruder temp
M140 S70 ; set bed temp
M190 S70 ; wait for bed temp
M109 S215 ; wait for extruder temp
G28 W ; home all without mesh bed level
G80 ; mesh bed leveling
G1 Y-3.0 F1000.0 ; go outside print area
G92 E0.0
G1 X60.0 E9.0  F1000.0 ; intro line
M73 P0 R29
G1 X100.0 E12.5 F1000.0 ; intro line
G92 E0.0
G21 ; set units to millimeters
G90 ; use absolute coordinates
M83 ; use relative distances for extrusion
M900 K30 ; Filament gcode
;BEFORE_LAYER_CHANGE
G92 E0.0
;0.2


G1 E-0.80000 F2100.00000
G1 Z0.600 F10800.000
;AFTER_LAYER_CHANGE
;0.2
G1 X105.994 Y66.417
G1 Z0.200
G1 E0.80000 F2100.00000
M204 S1000
G1 F1200
G1 X106.621 Y65.839 E0.02676
G1 X107.424 Y65.431 E0.02823
G1 X108.272 Y65.266 E0.02710
G1 X141.554 Y65.261 E1.04352
G1 X142.151 Y65.319 E0.01882
G1 X142.728 Y65.487 E0.01883
G1 X143.264 Y65.761 E0.01888
G1 X143.740 Y66.133 E0.01895
G1 X144.134 Y66.583 E0.01874
G1 X144.445 Y67.113 E0.01928
G1 X144.645 Y67.683 E0.01894
G1 X144.735 Y68.306 E0.01972
G1 X144.739 Y141.557 E2.29675
G1 X144.672 Y142.197 E0.02017
G1 X144.462 Y142.849 E0.02148
G1 X144.001 Y143.589 E0.02732
G1 X143.369 Y144.168 E0.02688
G1 X142.574 Y144.569 E0.02791
G1 X141.712 Y144.734 E0.02753
G1 X108.432 Y144.738 E1.04347
G1 X107.803 Y144.672 E0.01984
G1 X107.154 Y144.463 E0.02137
G1 X106.392 Y143.985 E0.02820
G1 X105.779 Y143.291 E0.02904
G1 X105.404 Y142.493 E0.02762
G1 X105.262 Y141.597 E0.02847
G1 X105.261 Y68.443 E2.29369
G1 X105.328 Y67.802 E0.02019
G1 X105.538 Y67.152 E0.02143
G1 X105.962 Y66.468 E0.02522
G1 F8640
G1 X106.621 Y65.839 E-0.21044
G1 X107.424 Y65.431 E-0.20790
G1 X108.272 Y65.266 E-0.19955
G1 X108.888 Y65.266 E-0.14211
G1 E-0.04000 F2100.00000
G1 Z0.800 F10800.000
G1 X108.315 Y68.066
G1 Z0.200
G1 E0.80000 F2100.00000
G1 F1200
G1 X108.496 Y68.037 E0.00574
G1 X141.516 Y68.037 E1.03531
G1 X141.660 Y68.056 E0.00457
G1 X141.791 Y68.118 E0.00454
G1 X141.849 Y68.169 E0.00242
G1 X141.932 Y68.299 E0.00482
G1 X141.963 Y68.478 E0.00569
G1 X141.963 Y141.513 E2.28997
G1 X141.928 Y141.707 E0.00618
G1 X141.840 Y141.835 E0.00486
G1 X141.685 Y141.934 E0.00579
G1 X141.504 Y141.963 E0.00574
G1 X108.487 Y141.963 E1.03522
G1 X108.293 Y141.928 E0.00618
G1 X108.165 Y141.840 E0.00486
G1 X108.065 Y141.683 E0.00585
G1 X108.037 Y141.504 E0.00566
G1 X108.037 Y68.478 E2.28968
G1 X108.077 Y68.285 E0.00618
G1 X108.160 Y68.165 E0.00458
G1 X108.261 Y68.091 E0.00392
G1 X108.028 Y67.784 F10800.000
G1 F1200
G1 X108.203 Y67.702 E0.00609
G1 X108.467 Y67.660 E0.00835
G1 X141.540 Y67.660 E1.03699
G1 X141.749 Y67.687 E0.00662
G1 X141.886 Y67.736 E0.00456
G1 X142.014 Y67.812 E0.00466
G1 X142.125 Y67.910 E0.00466
G1 X142.216 Y68.027 E0.00466
G1 X142.284 Y68.160 E0.00466
G1 X142.325 Y68.302 E0.00466
G1 X142.340 Y68.460 E0.00497
G1 X142.340 Y141.537 E2.29128
G1 X142.313 Y141.749 E0.00672
G1 X142.266 Y141.880 E0.00434
G1 X142.122 Y142.092 E0.00804
G1 X141.972 Y142.216 E0.00609
G1 X141.797 Y142.298 E0.00609
G1 X141.533 Y142.340 E0.00835
G1 X108.463 Y142.340 E1.03690
G1 X108.251 Y142.313 E0.00672
G1 X108.120 Y142.266 E0.00434
G1 X107.908 Y142.122 E0.00804
G1 X107.785 Y141.973 E0.00608
G1 X107.701 Y141.794 E0.00618
G1 X107.660 Y141.534 E0.00826
G1 X107.660 Y68.460 E2.29117
G1 X107.675 Y68.303 E0.00496
G1 X107.736 Y68.118 E0.00610
G1 X107.878 Y67.908 E0.00794
G1 X107.981 Y67.823 E0.00421
G1 X108.201 Y67.872 F10800.000
G1 F8640
G1 X108.203 Y67.702 E-0.05837
G1 X108.467 Y67.660 E-0.06153
G1 X111.239 Y67.660 E-0.64010
G1 E-0.04000 F2100.00000
G1 Z0.800 F10800.000
G1 X141.850 Y69.109
G1 Z0.200
G1 E0.80000 F2100.00000
G1 F1200
G1 X141.061 Y68.320 E0.03511
G1 X140.526 Y68.320 E0.01686
G1 X141.680 Y69.474 E0.05140
G1 X141.680 Y70.010 E0.01686
G1 X139.990 Y68.320 E0.07524
G1 X139.455 Y68.320 E0.01686
G1 X141.680 Y70.545 E0.09907
G1 X141.680 Y71.081 E0.01686
G1 X138.919 Y68.320 E0.12291
G1 X138.384 Y68.320 E0.01686
G1 X141.680 Y71.616 E0.14675
G1 X141.680 Y72.152 E0.01686
G1 X137.849 Y68.320 E0.17059
G1 X137.313 Y68.320 E0.01686
G1 X141.680 Y72.687 E0.19442
G1 X141.680 Y73.222 E0.01686
G1 X136.778 Y68.320 E0.21826
G1 X136.242 Y68.320 E0.01686
G1 X141.680 Y73.758 E0.24210
G1 X141.680 Y74.293 E0.01686
G1 X135.707 Y68.320 E0.26594
G1 X135.171 Y68.320 E0.01686
G1 X141.680 Y74.829 E0.28978
G1 X141.680 Y75.364 E0.01686
G1 X134.636 Y68.320 E0.31361
G1 X134.101 Y68.320 E0.01686
G1 X141.680 Y75.900 E0.33745
G1 X141.680 Y76.435 E0.01686
G1 X133.565 Y68.320 E0.36129
G1 X133.030 Y68.320 E0.01686
G1 X141.680 Y76.970 E0.38513
G1 X141.680 Y77.506 E0.01686
G1 X132.494 Y68.320 E0.40897
G1 X131.959 Y68.320 E0.01686
G1 X141.680 Y78.041 E0.43280
G1 X141.680 Y78.577 E0.01686
G1 X131.423 Y68.320 E0.45664
G1 X130.888 Y68.320 E0.01686
G1 X141.680 Y79.112 E0.48048
G1 X141.680 Y79.648 E0.01686
G1 X130.353 Y68.320 E0.50432
G1 X129.817 Y68.320 E0.01686
G1 X141.680 Y80.183 E0.52816
G1 X141.680 Y80.718 E0.01686
G1 X129.282 Y68.320 E0.55199
G1 X128.746 Y68.320 E0.01686
G1 X141.680 Y81.254 E0.57583
G1 X141.680 Y81.789 E0.01686
G1 X128.211 Y68.320 E0.59967
G1 X127.675 Y68.320 E0.01686
G1 X141.680 Y82.325 E0.62351
G1 X141.680 Y82.860 E0.01686
G1 X127.140 Y68.320 E0.64734
G1 X126.605 Y68.320 E0.01686
G1 X141.680 Y83.396 E0.67118
G1 X141.680 Y83.931 E0.01686
G1 X126.069 Y68.320 E0.69502
G1 X125.534 Y68.320 E0.01686
G1 X141.680 Y84.466 E0.71886
G1 X141.680 Y85.002 E0.01686
G1 X124.998 Y68.320 E0.74270
G1 X124.463 Y68.320 E0.01686
G1 X141.680 Y85.537 E0.76653
G1 X141.680 Y86.073 E0.01686
G1 X123.927 Y68.320 E0.79037
G1 X123.392 Y68.320 E0.01686
G1 X141.680 Y86.608 E0.81421
M73 P3 R28
G1 X141.680 Y87.144 E0.01686
G1 X122.856 Y68.320 E0.83805
G1 X122.321 Y68.320 E0.01686
G1 X141.680 Y87.679 E0.86189
G1 X141.680 Y88.214 E0.01686
G1 X121.786 Y68.320 E0.88572
G1 X121.250 Y68.320 E0.01686
G1 X141.680 Y88.750 E0.90956
G1 X141.680 Y89.285 E0.01686
G1 X120.715 Y68.320 E0.93340
G1 X120.179 Y68.320 E0.01686
G1 X141.680 Y89.821 E0.95724
G1 X141.680 Y90.356 E0.01686
G1 X119.644 Y68.320 E0.98108
G1 X119.108 Y68.320 E0.01686
G1 X141.680 Y90.892 E1.00491
G1 X141.680 Y91.427 E0.01686
G1 X118.573 Y68.320 E1.02875
G1 X118.038 Y68.320 E0.01686
G1 X141.680 Y91.962 E1.05259
G1 X141.680 Y92.498 E0.01686
G1 X117.502 Y68.320 E1.07643
G1 X116.967 Y68.320 E0.01686
G1 X141.680 Y93.033 E1.10026
G1 X141.680 Y93.569 E0.01686
G1 X116.431 Y68.320 E1.12410
G1 X115.896 Y68.320 E0.01686
G1 X141.680 Y94.104 E1.14794
G1 X141.680 Y94.640 E0.01686
G1 X115.360 Y68.320 E1.17178
G1 X114.825 Y68.320 E0.01686
G1 X141.680 Y95.175 E1.19562
G1 X141.680 Y95.710 E0.01686
G1 X114.290 Y68.320 E1.21945
G1 X113.754 Y68.320 E0.01686
G1 X141.680 Y96.246 E1.24329
G1 X141.680 Y96.781 E0.01686
G1 X113.219 Y68.320 E1.26713
G1 X112.683 Y68.320 E0.01686
G1 X141.680 Y97.317 E1.29097
G1 X141.680 Y97.852 E0.01686
G1 X112.148 Y68.320 E1.31481
G1 X111.612 Y68.320 E0.01686
G1 X141.680 Y98.388 E1.33864
G1 X141.680 Y98.923 E0.01686
G1 X111.077 Y68.320 E1.36248
G1 X110.542 Y68.320 E0.01686
G1 X141.680 Y99.458 E1.38632
G1 X141.680 Y99.994 E0.01686
G1 X110.006 Y68.320 E1.41016
G1 X109.471 Y68.320 E0.01686
G1 X141.680 Y100.529 E1.43400
G1 X141.680 Y101.065 E0.01686
G1 X108.935 Y68.320 E1.45783
G1 X108.518 Y68.320 E0.01312
G1 X108.416 Y68.336 E0.00326
G1 X141.680 Y101.600 E1.48095
G1 X141.680 Y102.136 E0.01686
G1 X108.320 Y68.775 E1.48523
G1 X108.320 Y69.311 E0.01686
G1 X141.680 Y102.671 E1.48523
G1 X141.680 Y103.206 E0.01686
G1 X108.320 Y69.846 E1.48523
G1 X108.320 Y70.382 E0.01686
G1 X141.680 Y103.742 E1.48523
M73 P7 R27
G1 X141.680 Y104.277 E0.01686
G1 X108.320 Y70.917 E1.48523
G1 X108.320 Y71.452 E0.01686
G1 X141.680 Y104.813 E1.48523
G1 X141.680 Y105.348 E0.01686
G1 X108.320 Y71.988 E1.48523
G1 X108.320 Y72.523 E0.01686
G1 X141.680 Y105.884 E1.48523
G1 X141.680 Y106.419 E0.01686
G1 X108.320 Y73.059 E1.48523
G1 X108.320 Y73.594 E0.01686
G1 X141.680 Y106.954 E1.48523
G1 X141.680 Y107.490 E0.01686
G1 X108.320 Y74.130 E1.48523
G1 X108.320 Y74.665 E0.01686
G1 X141.680 Y108.025 E1.48523
G1 X141.680 Y108.561 E0.01686
G1 X108.320 Y75.200 E1.48523
G1 X108.320 Y75.736 E0.01686
G1 X141.680 Y109.096 E1.48523
G1 X141.680 Y109.632 E0.01686
G1 X108.320 Y76.271 E1.48523
G1 X108.320 Y76.807 E0.01686
G1 X141.680 Y110.167 E1.48523
G1 X141.680 Y110.702 E0.01686
G1 X108.320 Y77.342 E1.48523
G1 X108.320 Y77.878 E0.01686
G1 X141.680 Y111.238 E1.48523
G1 X141.680 Y111.773 E0.01686
G1 X108.320 Y78.413 E1.48523
G1 X108.320 Y78.948 E0.01686
G1 X141.680 Y112.309 E1.48523
G1 X141.680 Y112.844 E0.01686
G1 X108.320 Y79.484 E1.48523
G1 X108.320 Y80.019 E0.01686
G1 X141.680 Y113.380 E1.48523
G1 X141.680 Y113.915 E0.01686
G1 X108.320 Y80.555 E1.48523
G1 X108.320 Y81.090 E0.01686
G1 X141.680 Y114.450 E1.48523
G1 X141.680 Y114.986 E0.01686
G1 X108.320 Y81.626 E1.48523
G1 X108.320 Y82.161 E0.01686
G1 X141.680 Y115.521 E1.48523
G1 X141.680 Y116.057 E0.01686
G1 X108.320 Y82.696 E1.48523
G1 X108.320 Y83.232 E0.01686
G1 X141.680 Y116.592 E1.48523
G1 X141.680 Y117.128 E0.01686
G1 X108.320 Y83.767 E1.48523
G1 X108.320 Y84.303 E0.01686
G1 X141.680 Y117.663 E1.48523
M73 P10 R26
G1 X141.680 Y118.198 E0.01686
G1 X108.320 Y84.838 E1.48523
G1 X108.320 Y85.374 E0.01686
G1 X141.680 Y118.734 E1.48523
G1 X141.680 Y119.269 E0.01686
G1 X108.320 Y85.909 E1.48523
G1 X108.320 Y86.444 E0.01686
G1 X141.680 Y119.805 E1.48523
G1 X141.680 Y120.340 E0.01686
G1 X108.320 Y86.980 E1.48523
G1 X108.320 Y87.515 E0.01686
G1 X141.680 Y120.876 E1.48523
G1 X141.680 Y121.411 E0.01686
G1 X108.320 Y88.051 E1.48523
G1 X108.320 Y88.586 E0.01686
G1 X141.680 Y121.946 E1.48523
G1 X141.680 Y122.482 E0.01686
G1 X108.320 Y89.122 E1.48523
G1 X108.320 Y89.657 E0.01686
G1 X141.680 Y123.017 E1.48523
G1 X141.680 Y123.553 E0.01686
G1 X108.320 Y90.192 E1.48523
G1 X108.320 Y90.728 E0.01686
G1 X141.680 Y124.088 E1.48523
G1 X141.680 Y124.624 E0.01686
G1 X108.320 Y91.263 E1.48523
G1 X108.320 Y91.799 E0.01686
G1 X141.680 Y125.159 E1.48523
G1 X141.680 Y125.694 E0.01686
G1 X108.320 Y92.334 E1.48523
G1 X108.320 Y92.870 E0.01686
G1 X141.680 Y126.230 E1.48523
G1 X141.680 Y126.765 E0.01686
G1 X108.320 Y93.405 E1.48523
G1 X108.320 Y93.940 E0.01686
G1 X141.680 Y127.301 E1.48523
G1 X141.680 Y127.836 E0.01686
G1 X108.320 Y94.476 E1.48523
G1 X108.320 Y95.011 E0.01686
G1 X141.680 Y128.372 E1.48523
G1 X141.680 Y128.907 E0.01686
G1 X108.320 Y95.547 E1.48523
G1 X108.320 Y96.082 E0.01686
G1 X141.680 Y129.442 E1.48523
G1 X141.680 Y129.978 E0.01686
G1 X108.320 Y96.618 E1.48523
G1 X108.320 Y97.153 E0.01686
G1 X141.680 Y130.513 E1.48523
G1 X141.680 Y131.049 E0.01686
G1 X108.320 Y97.688 E1.48523
G1 X108.320 Y98.224 E0.01686
G1 X141.680 Y131.584 E1.48523
M73 P14 R25
G1 X141.680 Y132.120 E0.01686
G1 X108.320 Y98.759 E1.48523
G1 X108.320 Y99.295 E0.01686
G1 X141.680 Y132.655 E1.48523
G1 X141.680 Y133.190 E0.01686
G1 X108.320 Y99.830 E1.48523
G1 X108.320 Y100.366 E0.01686
G1 X141.680 Y133.726 E1.48523
G1 X141.680 Y134.261 E0.01686
G1 X108.320 Y100.901 E1.48523
G1 X108.320 Y101.436 E0.01686
G1 X141.680 Y134.797 E1.48523
G1 X141.680 Y135.332 E0.01686
G1 X108.320 Y101.972 E1.48523
G1 X108.320 Y102.507 E0.01686
G1 X141.680 Y135.868 E1.48523
G1 X141.680 Y136.403 E0.01686
G1 X108.320 Y103.043 E1.48523
G1 X108.320 Y103.578 E0.01686
G1 X141.680 Y136.938 E1.48523
G1 X141.680 Y137.474 E0.01686
G1 X108.320 Y104.114 E1.48523
G1 X108.320 Y104.649 E0.01686
G1 X141.680 Y138.009 E1.48523
G1 X141.680 Y138.545 E0.01686
G1 X108.320 Y105.184 E1.48523
G1 X108.320 Y105.720 E0.01686
G1 X141.680 Y139.080 E1.48523
G1 X141.680 Y139.616 E0.01686
G1 X108.320 Y106.255 E1.48523
G1 X108.320 Y106.791 E0.01686
G1 X141.680 Y140.151 E1.48523
G1 X141.680 Y140.686 E0.01686
G1 X108.320 Y107.326 E1.48523
G1 X108.320 Y107.862 E0.01686
G1 X141.680 Y141.222 E1.48523
G1 X141.680 Y141.488 E0.00837
G1 X141.660 Y141.598 E0.00352
G1 X141.629 Y141.643 E0.00173
G1 X141.586 Y141.664 E0.00149
G1 X108.320 Y108.397 E1.48106
G1 X108.320 Y108.932 E0.01686
G1 X141.068 Y141.680 E1.45796
G1 X140.532 Y141.680 E0.01686
G1 X108.320 Y109.468 E1.43413
G1 X108.320 Y110.003 E0.01686
G1 X139.997 Y141.680 E1.41029
G1 X139.461 Y141.680 E0.01686
G1 X108.320 Y110.539 E1.38645
G1 X108.320 Y111.074 E0.01686
G1 X138.926 Y141.680 E1.36261
G1 X138.390 Y141.680 E0.01686
G1 X108.320 Y111.610 E1.33878
G1 X108.320 Y112.145 E0.01686
G1 X137.855 Y141.680 E1.31494
M73 P18 R24
G1 X137.320 Y141.680 E0.01686
G1 X108.320 Y112.680 E1.29110
G1 X108.320 Y113.216 E0.01686
G1 X136.784 Y141.680 E1.26726
G1 X136.249 Y141.680 E0.01686
G1 X108.320 Y113.751 E1.24342
G1 X108.320 Y114.287 E0.01686
G1 X135.713 Y141.680 E1.21959
G1 X135.178 Y141.680 E0.01686
G1 X108.320 Y114.822 E1.19575
G1 X108.320 Y115.358 E0.01686
G1 X134.642 Y141.680 E1.17191
G1 X134.107 Y141.680 E0.01686
G1 X108.320 Y115.893 E1.14807
G1 X108.320 Y116.428 E0.01686
G1 X133.572 Y141.680 E1.12423
G1 X133.036 Y141.680 E0.01686
G1 X108.320 Y116.964 E1.10040
G1 X108.320 Y117.499 E0.01686
G1 X132.501 Y141.680 E1.07656
G1 X131.965 Y141.680 E0.01686
G1 X108.320 Y118.035 E1.05272
G1 X108.320 Y118.570 E0.01686
G1 X131.430 Y141.680 E1.02888
G1 X130.894 Y141.680 E0.01686
G1 X108.320 Y119.106 E1.00505
G1 X108.320 Y119.641 E0.01686
G1 X130.359 Y141.680 E0.98121
G1 X129.824 Y141.680 E0.01686
G1 X108.320 Y120.176 E0.95737
G1 X108.320 Y120.712 E0.01686
G1 X129.288 Y141.680 E0.93353
G1 X128.753 Y141.680 E0.01686
G1 X108.320 Y121.247 E0.90969
G1 X108.320 Y121.783 E0.01686
G1 X128.217 Y141.680 E0.88586
G1 X127.682 Y141.680 E0.01686
G1 X108.320 Y122.318 E0.86202
G1 X108.320 Y122.854 E0.01686
G1 X127.146 Y141.680 E0.83818
G1 X126.611 Y141.680 E0.01686
G1 X108.320 Y123.389 E0.81434
G1 X108.320 Y123.924 E0.01686
G1 X126.076 Y141.680 E0.79050
G1 X125.540 Y141.680 E0.01686
G1 X108.320 Y124.460 E0.76667
G1 X108.320 Y124.995 E0.01686
G1 X125.005 Y141.680 E0.74283
G1 X124.469 Y141.680 E0.01686
G1 X108.320 Y125.531 E0.71899
G1 X108.320 Y126.066 E0.01686
G1 X123.934 Y141.680 E0.69515
G1 X123.398 Y141.680 E0.01686
G1 X108.320 Y126.602 E0.67132
G1 X108.320 Y127.137 E0.01686
G1 X122.863 Y141.680 E0.64748
G1 X122.328 Y141.680 E0.01686
G1 X108.320 Y127.672 E0.62364
G1 X108.320 Y128.208 E0.01686
G1 X121.792 Y141.680 E0.59980
G1 X121.257 Y141.680 E0.01686
G1 X108.320 Y128.743 E0.57596
G1 X108.320 Y129.279 E0.01686
G1 X120.721 Y141.680 E0.55213
G1 X120.186 Y141.680 E0.01686
G1 X108.320 Y129.814 E0.52829
G1 X108.320 Y130.350 E0.01686
G1 X119.650 Y141.680 E0.50445
G1 X119.115 Y141.680 E0.01686
G1 X108.320 Y130.885 E0.48061
G1 X108.320 Y131.420 E0.01686
G1 X118.580 Y141.680 E0.45678
G1 X118.044 Y141.680 E0.01686
G1 X108.320 Y131.956 E0.43294
G1 X108.320 Y132.491 E0.01686
G1 X117.509 Y141.680 E0.40910
G1 X116.973 Y141.680 E0.01686
G1 X108.320 Y133.027 E0.38526
G1 X108.320 Y133.562 E0.01686
G1 X116.438 Y141.680 E0.36142
G1 X115.902 Y141.680 E0.01686
G1 X108.320 Y134.098 E0.33759
G1 X108.320 Y134.633 E0.01686
G1 X115.367 Y141.680 E0.31375
G1 X114.832 Y141.680 E0.01686
G1 X108.320 Y135.168 E0.28991
G1 X108.320 Y135.704 E0.01686
G1 X114.296 Y141.680 E0.26607
G1 X113.761 Y141.680 E0.01686
G1 X108.320 Y136.239 E0.24223
G1 X108.320 Y136.775 E0.01686
G1 X113.225 Y141.680 E0.21840
G1 X112.690 Y141.680 E0.01686
G1 X108.320 Y137.310 E0.19456
G1 X108.320 Y137.846 E0.01686
G1 X112.154 Y141.680 E0.17072
G1 X111.619 Y141.680 E0.01686
