; generated by PrusaSlicer 2.1.0+win64 on 2019-11-23 at 19:56:37 UTC

; 

; external perimeters extrusion width = 0.45mm
; perimeters extrusion width = 0.45mm
; infill extrusion width = 0.45mm
; solid infill extrusion width = 0.45mm
; top infill extrusion width = 0.45mm
; first layer extrusion width = 0.42mm

M73 P0 R241
M201 X9000 Y9000 Z500 E10000 ; sets maximum accelerations, mm/sec^2
M203 X500 Y500 Z12 E120 ; sets maximum feedrates, mm/sec
M204 P2000 R1500 T2000 ; sets acceleration (P, T) and retract acceleration (R), mm/sec^2
M205 X10.00 Y10.00 Z0.20 E2.50 ; sets the jerk limits, mm/sec
M205 S0 T0 ; sets the minimum extruding and travel feed rate, mm/sec
M107
M862.3 P "MK2S" ; printer model check
M862.1 P0.4 ; nozzle diameter check
M115 U3.2.3 ; tell printer latest fw version
G90 ; use absolute coordinates
M83 ; extruder relative mode
M204 S2000 T1500 ; MK2 firmware only supports the old M204 format
M104 S215 ; set extruder temp
M140 S70 ; set bed temp
M190 S70 ; wait for bed temp
M109 S215 ; wait for extruder temp
G28 W ; home all without mesh bed level
G80 ; mesh bed leveling
G1 Y-3.0 F1000.0 ; go outside print area
G92 E0.0
G1 X60.0 E9.0  F1000.0 ; intro line
M73 P0 R241
G1 X100.0 E12.5 F1000.0 ; intro line
G92 E0.0
G21 ; set units to millimeters
G90 ; use absolute coordinates
M83 ; use relative distances for extrusion
M900 K30 ; Filament gcode
;BEFORE_LAYER_CHANGE
G92 E0.0
;0.2


G1 E-0.80000 F2100.00000
G1 Z0.600 F10800.000
;AFTER_LAYER_CHANGE
;0.2
G1 X38.547 Y34.556
G1 Z0.200
G1 E0.80000 F2100.00000
M204 S1000
G1 F1200
G1 X39.254 Y34.091 E0.02653
G1 X40.084 Y33.929 E0.02653
G1 X119.751 Y34.302 E2.49790
G1 X120.299 Y34.382 E0.01737
G1 X120.809 Y34.597 E0.01737
G1 X121.249 Y34.933 E0.01737
G1 X121.591 Y35.370 E0.01737
G1 X121.821 Y35.909 E0.01839
G1 X121.899 Y36.494 E0.01851
G1 X121.291 Y166.510 E4.07658
G1 X121.215 Y167.062 E0.01749
G1 X121.001 Y167.577 E0.01749
G1 X120.664 Y168.022 E0.01749
G1 X120.223 Y168.368 E0.01760
G1 X119.683 Y168.598 E0.01839
G1 X119.102 Y168.677 E0.01839
G1 X39.443 Y168.304 E2.49767
G1 X38.891 Y168.226 E0.01749
G1 X38.377 Y168.011 E0.01749
G1 X37.936 Y167.675 E0.01737
G1 X37.592 Y167.236 E0.01749
G1 X37.361 Y166.693 E0.01851
G1 X37.283 Y166.111 E0.01839
G1 X37.892 Y36.078 E4.07716
G1 X38.070 Y35.251 E0.02653
G1 X38.513 Y34.605 E0.02454
G1 F8640
G1 X39.254 Y34.091 E-0.20828
G1 X40.084 Y33.929 E-0.19539
G1 X41.628 Y33.936 E-0.35632
G1 E-0.04000 F2100.00000
G1 Z0.800 F10800.000
G1 X41.049 Y36.709
G1 Z0.200
G1 E0.80000 F2100.00000
G1 F1200
G1 X118.737 Y37.072 E2.43587
G1 X118.134 Y165.897 E4.03924
G1 X40.446 Y165.533 E2.43587
G1 X41.048 Y36.769 E4.03736
G1 X40.673 Y36.330 F10800.000
G1 F1200
G1 X119.115 Y36.697 E2.45952
G1 X118.509 Y166.276 E4.06289
G1 X40.067 Y165.909 E2.45952
M73 P0 R240
G1 X40.673 Y36.390 E4.06101
G1 X41.050 Y36.466 F10800.000
G1 F8640
G1 X43.965 Y36.403 E-0.76000
G1 E-0.04000 F2100.00000
G1 Z0.800 F10800.000
G1 X118.619 Y37.946
G1 Z0.200
G1 E0.80000 F2100.00000
G1 F1200
G1 X118.025 Y37.352 E0.02640
G1 X117.488 Y37.349 E0.01689
G1 X118.448 Y38.309 E0.04266
G1 X118.445 Y38.841 E0.01673
G1 X116.951 Y37.347 E0.06643
G1 X116.414 Y37.344 E0.01689
G1 X118.443 Y39.373 E0.09020
G1 X118.440 Y39.905 E0.01673
G1 X115.877 Y37.342 E0.11397
G1 X115.340 Y37.339 E0.01689
G1 X118.438 Y40.438 E0.13774
G1 X118.436 Y40.970 E0.01673
G1 X114.803 Y37.337 E0.16151
G1 X114.265 Y37.334 E0.01689
G1 X118.433 Y41.502 E0.18528
G1 X118.431 Y42.034 E0.01673
G1 X113.728 Y37.332 E0.20905
G1 X113.191 Y37.329 E0.01689
G1 X118.428 Y42.566 E0.23282
G1 X118.426 Y43.098 E0.01673
G1 X112.654 Y37.327 E0.25659
G1 X112.117 Y37.324 E0.01689
G1 X118.423 Y43.630 E0.28036
G1 X118.421 Y44.163 E0.01673
G1 X111.580 Y37.322 E0.30413
G1 X111.042 Y37.319 E0.01689
G1 X118.418 Y44.695 E0.32790
G1 X118.416 Y45.227 E0.01673
G1 X110.505 Y37.317 E0.35167
G1 X109.968 Y37.314 E0.01689
G1 X118.413 Y45.759 E0.37543
G1 X118.411 Y46.291 E0.01673
G1 X109.431 Y37.312 E0.39920
G1 X108.894 Y37.309 E0.01689
G1 X118.408 Y46.823 E0.42297
G1 X118.406 Y47.356 E0.01673
G1 X108.357 Y37.306 E0.44674
G1 X107.819 Y37.304 E0.01689
G1 X118.403 Y47.888 E0.47051
G1 X118.401 Y48.420 E0.01673
G1 X107.282 Y37.301 E0.49428
G1 X106.745 Y37.299 E0.01689
G1 X118.398 Y48.952 E0.51805
G1 X118.396 Y49.484 E0.01673
G1 X106.208 Y37.296 E0.54182
G1 X105.671 Y37.294 E0.01689
G1 X118.393 Y50.016 E0.56559
G1 X118.391 Y50.549 E0.01673
G1 X105.134 Y37.291 E0.58936
G1 X104.596 Y37.289 E0.01689
G1 X118.388 Y51.081 E0.61313
G1 X118.386 Y51.613 E0.01673
G1 X104.059 Y37.286 E0.63690
G1 X103.522 Y37.284 E0.01689
G1 X118.383 Y52.145 E0.66067
G1 X118.381 Y52.677 E0.01673
G1 X102.985 Y37.281 E0.68444
G1 X102.448 Y37.279 E0.01689
G1 X118.378 Y53.209 E0.70821
G1 X118.376 Y53.741 E0.01673
G1 X101.911 Y37.276 E0.73198
G1 X101.373 Y37.274 E0.01689
G1 X118.373 Y54.274 E0.75575
G1 X118.371 Y54.806 E0.01673
G1 X100.836 Y37.271 E0.77951
G1 X100.299 Y37.269 E0.01689
G1 X118.368 Y55.338 E0.80328
G1 X118.366 Y55.870 E0.01673
G1 X99.762 Y37.266 E0.82705
G1 X99.225 Y37.264 E0.01689
G1 X118.363 Y56.402 E0.85082
G1 X118.361 Y56.934 E0.01673
G1 X98.688 Y37.261 E0.87459
G1 X98.151 Y37.259 E0.01689
G1 X118.358 Y57.467 E0.89836
G1 X118.356 Y57.999 E0.01673
G1 X97.613 Y37.256 E0.92213
G1 X97.076 Y37.254 E0.01689
G1 X118.353 Y58.531 E0.94590
G1 X118.351 Y59.063 E0.01673
G1 X96.539 Y37.251 E0.96967
G1 X96.002 Y37.249 E0.01689
G1 X118.348 Y59.595 E0.99344
G1 X118.346 Y60.127 E0.01673
G1 X95.465 Y37.246 E1.01721
G1 X94.928 Y37.244 E0.01689
G1 X118.343 Y60.660 E1.04098
G1 X118.341 Y61.192 E0.01673
G1 X94.390 Y37.241 E1.06475
G1 X93.853 Y37.239 E0.01689
G1 X118.338 Y61.724 E1.08852
G1 X118.336 Y62.256 E0.01673
G1 X93.316 Y37.236 E1.11229
G1 X92.779 Y37.234 E0.01689
G1 X118.333 Y62.788 E1.13606
G1 X118.331 Y63.320 E0.01673
G1 X92.242 Y37.231 E1.15983
G1 X91.705 Y37.229 E0.01689
G1 X118.328 Y63.852 E1.18359
G1 X118.326 Y64.385 E0.01673
G1 X91.167 Y37.226 E1.20736
G1 X90.630 Y37.224 E0.01689
G1 X118.323 Y64.917 E1.23113
M73 P0 R239
G1 X118.321 Y65.449 E0.01673
G1 X90.093 Y37.221 E1.25490
G1 X89.556 Y37.219 E0.01689
G1 X118.319 Y65.981 E1.27867
G1 X118.316 Y66.513 E0.01673
G1 X89.019 Y37.216 E1.30244
G1 X88.482 Y37.214 E0.01689
G1 X118.314 Y67.045 E1.32621
G1 X118.311 Y67.578 E0.01673
G1 X87.944 Y37.211 E1.34998
G1 X87.407 Y37.208 E0.01689
G1 X118.309 Y68.110 E1.37375
G1 X118.306 Y68.642 E0.01673
G1 X86.870 Y37.206 E1.39752
G1 X86.333 Y37.203 E0.01689
G1 X118.304 Y69.174 E1.42129
G1 X118.301 Y69.706 E0.01673
G1 X85.796 Y37.201 E1.44506
G1 X85.259 Y37.198 E0.01689
G1 X118.299 Y70.238 E1.46883
G1 X118.296 Y70.771 E0.01673
G1 X84.722 Y37.196 E1.49260
G1 X84.184 Y37.193 E0.01689
G1 X118.294 Y71.303 E1.51637
G1 X118.291 Y71.835 E0.01673
G1 X83.647 Y37.191 E1.54014
G1 X83.110 Y37.188 E0.01689
G1 X118.289 Y72.367 E1.56391
G1 X118.286 Y72.899 E0.01673
G1 X82.573 Y37.186 E1.58767
G1 X82.036 Y37.183 E0.01689
G1 X118.284 Y73.431 E1.61144
G1 X118.281 Y73.963 E0.01673
G1 X81.499 Y37.181 E1.63521
G1 X80.961 Y37.178 E0.01689
G1 X118.279 Y74.496 E1.65898
G1 X118.276 Y75.028 E0.01673
G1 X80.424 Y37.176 E1.68275
G1 X79.887 Y37.173 E0.01689
G1 X118.274 Y75.560 E1.70652
G1 X118.271 Y76.092 E0.01673
G1 X79.350 Y37.171 E1.73029
G1 X78.813 Y37.168 E0.01689
G1 X118.269 Y76.624 E1.75406
G1 X118.266 Y77.156 E0.01673
G1 X78.276 Y37.166 E1.77783
G1 X77.738 Y37.163 E0.01689
G1 X118.264 Y77.689 E1.80160
G1 X118.261 Y78.221 E0.01673
G1 X77.201 Y37.161 E1.82537
M73 P1 R238
G1 X76.664 Y37.158 E0.01689
G1 X118.259 Y78.753 E1.84914
G1 X118.256 Y79.285 E0.01673
G1 X76.127 Y37.156 E1.87291
G1 X75.590 Y37.153 E0.01689
G1 X118.254 Y79.817 E1.89668
G1 X118.251 Y80.349 E0.01673
G1 X75.053 Y37.151 E1.92045
G1 X74.515 Y37.148 E0.01689
G1 X118.249 Y80.882 E1.94422
G1 X118.246 Y81.414 E0.01673
G1 X73.978 Y37.146 E1.96799
G1 X73.441 Y37.143 E0.01689
G1 X118.244 Y81.946 E1.99175
G1 X118.241 Y82.478 E0.01673
G1 X72.904 Y37.141 E2.01552
G1 X72.367 Y37.138 E0.01689
G1 X118.239 Y83.010 E2.03929
G1 X118.236 Y83.542 E0.01673
G1 X71.830 Y37.136 E2.06306
G1 X71.292 Y37.133 E0.01689
G1 X118.234 Y84.074 E2.08683
G1 X118.231 Y84.607 E0.01673
G1 X70.755 Y37.131 E2.11060
G1 X70.218 Y37.128 E0.01689
G1 X118.229 Y85.139 E2.13437
G1 X118.226 Y85.671 E0.01673
G1 X69.681 Y37.126 E2.15814
G1 X69.144 Y37.123 E0.01689
G1 X118.224 Y86.203 E2.18191
G1 X118.221 Y86.735 E0.01673
G1 X68.607 Y37.121 E2.20568
G1 X68.070 Y37.118 E0.01689
G1 X118.219 Y87.267 E2.22945
G1 X118.216 Y87.800 E0.01673
G1 X67.532 Y37.116 E2.25322
G1 X66.995 Y37.113 E0.01689
G1 X118.214 Y88.332 E2.27699
M73 P1 R237
G1 X118.211 Y88.864 E0.01673
G1 X66.458 Y37.110 E2.30076
G1 X65.921 Y37.108 E0.01689
G1 X118.209 Y89.396 E2.32453
G1 X118.206 Y89.928 E0.01673
G1 X65.384 Y37.105 E2.34830
G1 X64.847 Y37.103 E0.01689
G1 X118.204 Y90.460 E2.37207
G1 X118.201 Y90.993 E0.01673
G1 X64.309 Y37.100 E2.39583
G1 X63.772 Y37.098 E0.01689
G1 X118.199 Y91.525 E2.41960
G1 X118.197 Y92.057 E0.01673
G1 X63.235 Y37.095 E2.44337
G1 X62.698 Y37.093 E0.01689
G1 X118.194 Y92.589 E2.46714
G1 X118.192 Y93.121 E0.01673
G1 X62.161 Y37.090 E2.49091
G1 X61.624 Y37.088 E0.01689
G1 X118.189 Y93.653 E2.51468
G1 X118.187 Y94.185 E0.01673
G1 X61.086 Y37.085 E2.53845
G1 X60.549 Y37.083 E0.01689
G1 X118.184 Y94.718 E2.56222
G1 X118.182 Y95.250 E0.01673
G1 X60.012 Y37.080 E2.58599
G1 X59.475 Y37.078 E0.01689
G1 X118.179 Y95.782 E2.60976
G1 X118.177 Y96.314 E0.01673
G1 X58.938 Y37.075 E2.63353
G1 X58.401 Y37.073 E0.01689
G1 X118.174 Y96.846 E2.65730
M73 P2 R236
G1 X118.172 Y97.378 E0.01673
G1 X57.863 Y37.070 E2.68107
G1 X57.326 Y37.068 E0.01689
G1 X118.169 Y97.911 E2.70484
G1 X118.167 Y98.443 E0.01673
G1 X56.789 Y37.065 E2.72861
G1 X56.252 Y37.063 E0.01689
G1 X118.164 Y98.975 E2.75238
G1 X118.162 Y99.507 E0.01673
G1 X55.715 Y37.060 E2.77615
G1 X55.178 Y37.058 E0.01689
G1 X118.159 Y100.039 E2.79991
G1 X118.157 Y100.571 E0.01673
G1 X54.640 Y37.055 E2.82368
G1 X54.103 Y37.053 E0.01689
G1 X118.154 Y101.104 E2.84745
G1 X118.152 Y101.636 E0.01673
G1 X53.566 Y37.050 E2.87122
G1 X53.029 Y37.048 E0.01689
G1 X118.149 Y102.168 E2.89499
G1 X118.147 Y102.700 E0.01673
G1 X52.492 Y37.045 E2.91876
G1 X51.955 Y37.043 E0.01689
G1 X118.144 Y103.232 E2.94253
G1 X118.142 Y103.764 E0.01673
G1 X51.418 Y37.040 E2.96630
G1 X50.880 Y37.038 E0.01689
G1 X118.139 Y104.296 E2.99007
M73 P2 R235
G1 X118.137 Y104.829 E0.01673
G1 X50.343 Y37.035 E3.01384
G1 X49.806 Y37.033 E0.01689
G1 X118.134 Y105.361 E3.03761
G1 X118.132 Y105.893 E0.01673
G1 X49.269 Y37.030 E3.06138
G1 X48.732 Y37.028 E0.01689
G1 X118.129 Y106.425 E3.08515
G1 X118.127 Y106.957 E0.01673
G1 X48.195 Y37.025 E3.10892
G1 X47.657 Y37.023 E0.01689
G1 X118.124 Y107.489 E3.13269
G1 X118.122 Y108.022 E0.01673
G1 X47.120 Y37.020 E3.15646
G1 X46.583 Y37.017 E0.01689
G1 X118.119 Y108.554 E3.18023
G1 X118.117 Y109.086 E0.01673
G1 X46.046 Y37.015 E3.20399
G1 X45.509 Y37.012 E0.01689
G1 X118.114 Y109.618 E3.22776
G1 X118.112 Y110.150 E0.01673
G1 X44.972 Y37.010 E3.25153
G1 X44.434 Y37.007 E0.01689
G1 X118.109 Y110.682 E3.27530
M73 P3 R234
G1 X118.107 Y111.215 E0.01673
G1 X43.897 Y37.005 E3.29907
G1 X43.360 Y37.002 E0.01689
G1 X118.104 Y111.747 E3.32284
G1 X118.102 Y112.279 E0.01673
G1 X42.823 Y37.000 E3.34661
G1 X42.286 Y36.997 E0.01689
G1 X118.099 Y112.811 E3.37038
G1 X118.097 Y113.343 E0.01673
G1 X41.749 Y36.995 E3.39415
G1 X41.330 Y36.993 E0.01315
G1 X41.330 Y37.111 E0.00370
G1 X118.094 Y113.875 E3.41267
G1 X118.092 Y114.407 E0.01673
G1 X41.327 Y37.643 E3.41267
G1 X41.325 Y38.175 E0.01673
G1 X118.089 Y114.940 E3.41267
G1 X118.087 Y115.472 E0.01673
G1 X41.322 Y38.707 E3.41267
G1 X41.320 Y39.239 E0.01673
G1 X118.084 Y116.004 E3.41267
G1 X118.082 Y116.536 E0.01673
G1 X41.317 Y39.771 E3.41267
G1 X41.315 Y40.303 E0.01673
G1 X118.079 Y117.068 E3.41267
M73 P3 R233
G1 X118.077 Y117.600 E0.01673
G1 X41.312 Y40.836 E3.41267
G1 X41.310 Y41.368 E0.01673
G1 X118.075 Y118.133 E3.41267
G1 X118.072 Y118.665 E0.01673
G1 X41.307 Y41.900 E3.41267
G1 X41.305 Y42.432 E0.01673
G1 X118.070 Y119.197 E3.41267
G1 X118.067 Y119.729 E0.01673
G1 X41.302 Y42.964 E3.41267
G1 X41.300 Y43.496 E0.01673
G1 X118.065 Y120.261 E3.41267
G1 X118.062 Y120.793 E0.01673
G1 X41.297 Y44.029 E3.41267
G1 X41.295 Y44.561 E0.01673
G1 X118.060 Y121.326 E3.41267
G1 X118.057 Y121.858 E0.01673
G1 X41.292 Y45.093 E3.41267
G1 X41.290 Y45.625 E0.01673
G1 X118.055 Y122.390 E3.41267
G1 X118.052 Y122.922 E0.01673
G1 X41.287 Y46.157 E3.41267
M73 P3 R232
G1 X41.285 Y46.689 E0.01673
G1 X118.050 Y123.454 E3.41267
G1 X118.047 Y123.986 E0.01673
G1 X41.282 Y47.222 E3.41267
G1 X41.280 Y47.754 E0.01673
G1 X118.045 Y124.518 E3.41267
G1 X118.042 Y125.051 E0.01673
G1 X41.277 Y48.286 E3.41267
G1 X41.275 Y48.818 E0.01673
G1 X118.040 Y125.583 E3.41267
G1 X118.037 Y126.115 E0.01673
G1 X41.272 Y49.350 E3.41267
G1 X41.270 Y49.882 E0.01673
G1 X118.035 Y126.647 E3.41267
G1 X118.032 Y127.179 E0.01673
G1 X41.267 Y50.414 E3.41267
G1 X41.265 Y50.947 E0.01673
G1 X118.030 Y127.711 E3.41267
G1 X118.027 Y128.244 E0.01673
G1 X41.262 Y51.479 E3.41267
G1 X41.260 Y52.011 E0.01673
G1 X118.025 Y128.776 E3.41267
M73 P4 R231
G1 X118.022 Y129.308 E0.01673
G1 X41.257 Y52.543 E3.41267
G1 X41.255 Y53.075 E0.01673
G1 X118.020 Y129.840 E3.41267
G1 X118.017 Y130.372 E0.01673
G1 X41.252 Y53.607 E3.41267
G1 X41.250 Y54.140 E0.01673
G1 X118.015 Y130.904 E3.41267
G1 X118.012 Y131.437 E0.01673
G1 X41.247 Y54.672 E3.41267
G1 X41.245 Y55.204 E0.01673
G1 X118.010 Y131.969 E3.41267
G1 X118.007 Y132.501 E0.01673
G1 X41.242 Y55.736 E3.41267
G1 X41.240 Y56.268 E0.01673
G1 X118.005 Y133.033 E3.41267
G1 X118.002 Y133.565 E0.01673
G1 X41.238 Y56.800 E3.41267
G1 X41.235 Y57.333 E0.01673
G1 X118.000 Y134.097 E3.41267
G1 X117.997 Y134.629 E0.01673
G1 X41.233 Y57.865 E3.41267
M73 P4 R230
G1 X41.230 Y58.397 E0.01673
G1 X117.995 Y135.162 E3.41267
G1 X117.992 Y135.694 E0.01673
G1 X41.228 Y58.929 E3.41267
G1 X41.225 Y59.461 E0.01673
G1 X117.990 Y136.226 E3.41267
G1 X117.987 Y136.758 E0.01673
G1 X41.223 Y59.993 E3.41267
G1 X41.220 Y60.525 E0.01673
G1 X117.985 Y137.290 E3.41267
G1 X117.982 Y137.822 E0.01673
G1 X41.218 Y61.058 E3.41267
G1 X41.215 Y61.590 E0.01673
G1 X117.980 Y138.355 E3.41267
G1 X117.977 Y138.887 E0.01673
G1 X41.213 Y62.122 E3.41267
G1 X41.210 Y62.654 E0.01673
G1 X117.975 Y139.419 E3.41267
G1 X117.972 Y139.951 E0.01673
G1 X41.208 Y63.186 E3.41267
G1 X41.205 Y63.718 E0.01673
G1 X117.970 Y140.483 E3.41267
M73 P5 R229
G1 X117.967 Y141.015 E0.01673
G1 X41.203 Y64.251 E3.41267
G1 X41.200 Y64.783 E0.01673
G1 X117.965 Y141.548 E3.41267
G1 X117.962 Y142.080 E0.01673
G1 X41.198 Y65.315 E3.41267
G1 X41.195 Y65.847 E0.01673
G1 X117.960 Y142.612 E3.41267
G1 X117.957 Y143.144 E0.01673
G1 X41.193 Y66.379 E3.41267
G1 X41.190 Y66.911 E0.01673
G1 X117.955 Y143.676 E3.41267
G1 X117.953 Y144.208 E0.01673
G1 X41.188 Y67.444 E3.41267
G1 X41.185 Y67.976 E0.01673
G1 X117.950 Y144.740 E3.41267
G1 X117.948 Y145.273 E0.01673
G1 X41.183 Y68.508 E3.41267
G1 X41.180 Y69.040 E0.01673
G1 X117.945 Y145.805 E3.41267
G1 X117.943 Y146.337 E0.01673
G1 X41.178 Y69.572 E3.41267
M73 P5 R228
G1 X41.175 Y70.104 E0.01673
G1 X117.940 Y146.869 E3.41267
G1 X117.938 Y147.401 E0.01673
G1 X41.173 Y70.636 E3.41267
G1 X41.170 Y71.169 E0.01673
G1 X117.935 Y147.933 E3.41267
G1 X117.933 Y148.466 E0.01673
G1 X41.168 Y71.701 E3.41267
G1 X41.165 Y72.233 E0.01673
G1 X117.930 Y148.998 E3.41267
G1 X117.928 Y149.530 E0.01673
G1 X41.163 Y72.765 E3.41267
G1 X41.160 Y73.297 E0.01673
G1 X117.925 Y150.062 E3.41267
G1 X117.923 Y150.594 E0.01673
G1 X41.158 Y73.829 E3.41267
G1 X41.155 Y74.362 E0.01673
G1 X117.920 Y151.126 E3.41267
G1 X117.918 Y151.659 E0.01673
G1 X41.153 Y74.894 E3.41267
G1 X41.150 Y75.426 E0.01673
G1 X117.915 Y152.191 E3.41267
M73 P5 R227
G1 X117.913 Y152.723 E0.01673
G1 X41.148 Y75.958 E3.41267
G1 X41.145 Y76.490 E0.01673
G1 X117.910 Y153.255 E3.41267
G1 X117.908 Y153.787 E0.01673
G1 X41.143 Y77.022 E3.41267
G1 X41.140 Y77.555 E0.01673
G1 X117.905 Y154.319 E3.41267
G1 X117.903 Y154.851 E0.01673
G1 X41.138 Y78.087 E3.41267
G1 X41.135 Y78.619 E0.01673
G1 X117.900 Y155.384 E3.41267
G1 X117.898 Y155.916 E0.01673
G1 X41.133 Y79.151 E3.41267
