; generated by PrusaSlicer 2.2.0+win64 on 2020-04-07 at 00:20:01 UTC

; 

; external perimeters extrusion width = 0.60mm
; perimeters extrusion width = 0.43mm
; infill extrusion width = 0.45mm
; solid infill extrusion width = 0.70mm
; top infill extrusion width = 0.43mm
; first layer extrusion width = 0.42mm

M73 P0 R30
M201 X9000 Y9000 Z500 E10000 ; sets maximum accelerations, mm/sec^2
M203 X500 Y500 Z12 E120 ; sets maximum feedrates, mm/sec
M204 P2000 R1500 T2000 ; sets acceleration (P, T) and retract acceleration (R), mm/sec^2
M205 X10.00 Y10.00 Z0.20 E2.50 ; sets the jerk limits, mm/sec
M205 S0 T0 ; sets the minimum extruding and travel feed rate, mm/sec
M107
M862.3 P "MK2S" ; printer model check
M862.1 P0.4 ; nozzle diameter check
M115 U3.2.3 ; tell printer latest fw version
G90 ; use absolute coordinates
M83 ; extruder relative mode
M204 S2000 T1500 ; MK2 firmware only supports the old M204 format
M104 S230 ; set extruder temp
M140 S85 ; set bed temp
M190 S85 ; wait for bed temp
M109 S230 ; wait for extruder temp
G28 W ; home all without mesh bed level
G80 ; mesh bed leveling
G1 Y-3.0 F1000.0 ; go outside print area
G92 E0.0
G1 X60.0 E9.0  F1000.0 ; intro line
M73 P0 R30
G1 X100.0 E12.5 F1000.0 ; intro line
G92 E0.0
G21 ; set units to millimeters
G90 ; use absolute coordinates
M83 ; use relative distances for extrusion
M900 K45 ; Filament gcode
;BEFORE_LAYER_CHANGE
G92 E0.0
;0.2


G1 E-1.40000 F2100.00000
G1 Z0.200 F10800.000
;AFTER_LAYER_CHANGE
;0.2
G1 Z0.400
G1 X49.200 Y26.841
G1 Z0.200
G1 E1.40000 F2100.00000
M204 S1000
G1 F1200.000
G1 X50.024 Y26.053 E0.03573
G1 X51.027 Y25.512 E0.03575
G1 X52.239 Y25.246 E0.03888
G1 X83.144 Y25.235 E0.96900
G1 X126.706 Y25.549 E1.36591
G1 X127.772 Y25.746 E0.03398
G1 X128.756 Y26.206 E0.03406
G1 X129.593 Y26.901 E0.03410
G1 X130.234 Y27.796 E0.03454
G1 X130.608 Y28.753 E0.03222
G1 X130.743 Y29.797 E0.03299
G1 X130.743 Y108.268 E2.46042
G1 X130.556 Y109.469 E0.03810
G1 X130.103 Y110.470 E0.03445
G1 X129.393 Y111.338 E0.03515
G1 X128.482 Y111.991 E0.03515
G1 X127.525 Y112.363 E0.03219
G1 X126.471 Y112.496 E0.03331
G1 X95.855 Y112.496 E0.95994
G1 X52.477 Y112.188 E1.36011
G1 X51.286 Y112.001 E0.03781
G1 X50.285 Y111.546 E0.03447
G1 X49.425 Y110.843 E0.03484
G1 X48.767 Y109.927 E0.03534
G1 X48.394 Y108.963 E0.03241
G1 X48.263 Y107.918 E0.03303
G1 X48.263 Y29.504 E2.45860
G1 X48.340 Y28.702 E0.02529
G1 X48.571 Y27.919 E0.02559
G1 X49.170 Y26.893 E0.03725
G1 F8640.000
G1 X50.024 Y26.053 E-0.27649
G1 X51.027 Y25.512 E-0.26329
G1 X52.239 Y25.246 E-0.28636
G1 X54.421 Y25.245 E-0.50386
G1 E-0.07000 F2100.00000
G1 Z0.400 F10800.000
G1 X66.213 Y79.241
G1 Z0.200
G1 E1.40000 F2100.00000
G1 F1200.000
G1 X66.670 Y79.154 E0.01457
G1 X66.937 Y79.130 E0.00841
G1 X67.372 Y79.131 E0.01363
G1 X67.840 Y79.190 E0.01480
G1 X68.498 Y79.381 E0.02148
G1 X69.117 Y79.697 E0.02177
G1 X69.666 Y80.122 E0.02177
G1 X70.125 Y80.643 E0.02177
G1 X70.478 Y81.241 E0.02177
G1 X70.714 Y81.894 E0.02178
G1 X70.822 Y82.580 E0.02177
G1 X70.801 Y83.265 E0.02149
G1 X70.712 Y83.729 E0.01481
G1 X70.566 Y84.179 E0.01482
G1 X70.255 Y84.789 E0.02148
G1 X69.830 Y85.338 E0.02177
G1 X69.309 Y85.797 E0.02178
G1 X68.711 Y86.151 E0.02177
G1 X68.057 Y86.386 E0.02178
G1 X67.371 Y86.495 E0.02177
G1 X66.687 Y86.473 E0.02149
G1 X66.223 Y86.385 E0.01481
G1 X65.773 Y86.239 E0.01482
G1 X65.163 Y85.928 E0.02148
G1 X64.614 Y85.502 E0.02178
G1 X64.155 Y84.981 E0.02177
G1 X63.801 Y84.383 E0.02177
G1 X63.566 Y83.730 E0.02178
G1 X63.457 Y83.044 E0.02177
G1 X63.479 Y82.359 E0.02149
G1 X63.567 Y81.895 E0.01481
G1 X63.713 Y81.446 E0.01481
G1 X64.024 Y80.835 E0.02149
G1 X64.450 Y80.286 E0.02178
G1 X64.971 Y79.827 E0.02177
G1 X65.569 Y79.473 E0.02178
G1 X66.157 Y79.262 E0.01961
G1 X65.730 Y79.816 F10800.000
G1 F1200.000
G1 X66.313 Y79.606 E0.01944
G1 X66.722 Y79.528 E0.01305
G1 X66.954 Y79.507 E0.00729
G1 X67.348 Y79.508 E0.01236
G1 X67.763 Y79.561 E0.01313
G1 X68.359 Y79.734 E0.01944
G1 X68.914 Y80.017 E0.01954
G1 X69.406 Y80.398 E0.01954
G1 X69.818 Y80.866 E0.01954
G1 X70.136 Y81.402 E0.01954
G1 X70.347 Y81.989 E0.01954
G1 X70.444 Y82.604 E0.01954
G1 X70.425 Y83.224 E0.01944
G1 X70.346 Y83.635 E0.01313
G1 X70.217 Y84.034 E0.01314
G1 X69.935 Y84.586 E0.01944
G1 X69.553 Y85.079 E0.01954
G1 X69.086 Y85.491 E0.01954
G1 X68.550 Y85.808 E0.01954
G1 X67.963 Y86.019 E0.01954
G1 X67.348 Y86.117 E0.01954
G1 X66.728 Y86.097 E0.01944
G1 X66.317 Y86.019 E0.01313
G1 X65.918 Y85.889 E0.01314
G1 X65.366 Y85.608 E0.01943
G1 X64.873 Y85.226 E0.01954
G1 X64.461 Y84.758 E0.01954
G1 X64.144 Y84.222 E0.01954
G1 X63.933 Y83.635 E0.01954
G1 X63.835 Y83.020 E0.01954
G1 X63.855 Y82.400 E0.01944
G1 X63.933 Y81.989 E0.01314
G1 X64.063 Y81.590 E0.01314
G1 X64.344 Y81.038 E0.01944
G1 X64.726 Y80.545 E0.01954
G1 X65.194 Y80.133 E0.01954
G1 X65.678 Y79.847 E0.01766
G1 X65.763 Y79.418 F10800.000
G1 F8640.000
G1 X66.313 Y79.606 E-0.15678
G1 X66.722 Y79.528 E-0.09609
G1 X66.954 Y79.507 E-0.05367
G1 X67.348 Y79.508 E-0.09104
G1 X67.763 Y79.561 E-0.09672
G1 X68.359 Y79.734 E-0.14314
G1 X68.914 Y80.017 E-0.14389
G1 X69.406 Y80.398 E-0.14389
G1 X69.818 Y80.866 E-0.14389
G1 X70.136 Y81.402 E-0.14389
G1 X70.307 Y81.879 E-0.11701
G1 E-0.07000 F2100.00000
G1 Z0.400 F10800.000
G1 X51.601 Y108.508
G1 Z0.200
G1 E1.40000 F2100.00000
G1 F1200.000
G1 X51.538 Y108.394 E0.00409
G1 X51.461 Y108.179 E0.00714
G1 X51.427 Y107.891 E0.00912
G1 X51.427 Y29.543 E2.45654
G1 X51.449 Y29.304 E0.00752
G1 X51.510 Y29.094 E0.00684
G1 X51.640 Y28.859 E0.00845
G1 X51.723 Y28.758 E0.00409
G1 X51.894 Y28.608 E0.00713
G1 X52.122 Y28.482 E0.00816
G1 X52.341 Y28.419 E0.00714
G1 X52.470 Y28.403 E0.00409
G1 X83.199 Y28.403 E0.96350
G1 X83.416 Y28.437 E0.00688
G1 X83.612 Y28.508 E0.00655
G1 X83.792 Y28.614 E0.00655
G1 X83.949 Y28.752 E0.00655
G1 X84.077 Y28.917 E0.00655
G1 X84.172 Y29.103 E0.00655
G1 X84.230 Y29.304 E0.00655
G1 X84.253 Y29.543 E0.00753
G1 X84.253 Y107.881 E2.45625
G1 X84.230 Y108.120 E0.00752
G1 X84.169 Y108.330 E0.00684
G1 X83.995 Y108.620 E0.01061
G1 X83.841 Y108.774 E0.00684
G1 X83.735 Y108.851 E0.00409
G1 X83.621 Y108.913 E0.00409
G1 X83.407 Y108.991 E0.00713
G1 X83.118 Y109.025 E0.00912
G1 X52.570 Y109.025 E0.95781
G1 X52.332 Y109.003 E0.00752
G1 X52.013 Y108.890 E0.01060
G1 X51.832 Y108.768 E0.00684
G1 X51.636 Y108.556 E0.00903
G1 X51.282 Y108.710 F10800.000
G1 F1200.000
G1 X51.194 Y108.549 E0.00576
G1 X51.096 Y108.279 E0.00900
G1 X51.050 Y107.902 E0.01191
G1 X51.050 Y29.525 E2.45747
G1 X51.077 Y29.233 E0.00920
G1 X51.156 Y28.961 E0.00889
G1 X51.335 Y28.637 E0.01160
G1 X51.452 Y28.495 E0.00576
G1 X51.667 Y28.305 E0.00900
G1 X51.988 Y28.129 E0.01150
G1 X52.264 Y28.049 E0.00900
G1 X52.446 Y28.026 E0.00576
G1 X83.229 Y28.026 E0.96517
G1 X83.510 Y28.070 E0.00893
G1 X83.774 Y28.165 E0.00879
G1 X84.015 Y28.307 E0.00879
G1 X84.225 Y28.493 E0.00879
G1 X84.397 Y28.714 E0.00879
G1 X84.524 Y28.964 E0.00878
G1 X84.602 Y29.233 E0.00879
G1 X84.630 Y29.525 E0.00920
G1 X84.630 Y107.899 E2.45736
G1 X84.602 Y108.191 E0.00920
G1 X84.523 Y108.463 E0.00889
G1 X84.446 Y108.627 E0.00565
G1 X84.287 Y108.861 E0.00889
G1 X84.086 Y109.062 E0.00889
G1 X83.938 Y109.170 E0.00576
G1 X83.777 Y109.258 E0.00576
G1 X83.507 Y109.355 E0.00900
G1 X83.130 Y109.402 E0.01190
G1 X52.553 Y109.402 E0.95873
G1 X52.261 Y109.375 E0.00920
G1 X51.988 Y109.296 E0.00889
G1 X51.825 Y109.219 E0.00566
G1 X51.591 Y109.059 E0.00889
G1 X51.390 Y108.859 E0.00889
G1 X51.317 Y108.759 E0.00388
G1 X51.366 Y108.546 F10800.000
G1 F8640.000
G1 X51.194 Y108.549 E-0.05620
G1 X51.096 Y108.279 E-0.06625
G1 X51.050 Y107.902 E-0.08767
G1 X51.050 Y103.052 E-1.11987
G1 E-0.07000 F2100.00000
G1 Z0.400 F10800.000
G1 X52.357 Y108.891
G1 Z0.200
G1 E1.40000 F2100.00000
G1 F1200.000
G1 X51.891 Y108.426 E0.02073
G1 X51.797 Y108.277 E0.00554
G1 X51.738 Y108.114 E0.00545
G1 X51.710 Y107.709 E0.01278
G1 X52.743 Y108.742 E0.04598
G1 X53.278 Y108.742 E0.01684
G1 X51.710 Y107.174 E0.06981
G1 X51.710 Y106.638 E0.01684
G1 X53.813 Y108.742 E0.09363
G1 X54.349 Y108.742 E0.01684
G1 X51.710 Y106.103 E0.11745
G1 X51.710 Y105.568 E0.01684
G1 X54.884 Y108.742 E0.14127
G1 X55.419 Y108.742 E0.01684
G1 X51.710 Y105.033 E0.16509
G1 X51.710 Y104.498 E0.01684
G1 X55.954 Y108.742 E0.18891
G1 X56.490 Y108.742 E0.01684
G1 X51.710 Y103.962 E0.21273
G1 X51.710 Y103.427 E0.01684
G1 X57.025 Y108.742 E0.23655
G1 X57.560 Y108.742 E0.01684
G1 X51.710 Y102.892 E0.26037
G1 X51.710 Y102.357 E0.01684
G1 X58.095 Y108.742 E0.28420
G1 X58.631 Y108.742 E0.01684
G1 X51.710 Y101.821 E0.30802
G1 X51.710 Y101.286 E0.01684
G1 X59.166 Y108.742 E0.33184
G1 X59.701 Y108.742 E0.01684
G1 X51.710 Y100.751 E0.35566
G1 X51.710 Y100.216 E0.01684
G1 X60.236 Y108.742 E0.37948
G1 X60.771 Y108.742 E0.01684
G1 X51.710 Y99.680 E0.40330
G1 X51.710 Y99.145 E0.01684
G1 X61.307 Y108.742 E0.42712
G1 X61.842 Y108.742 E0.01684
G1 X51.710 Y98.610 E0.45094
G1 X51.710 Y98.075 E0.01684
G1 X62.377 Y108.742 E0.47476
G1 X62.912 Y108.742 E0.01684
G1 X51.710 Y97.539 E0.49859
G1 X51.710 Y97.004 E0.01684
G1 X63.448 Y108.742 E0.52241
G1 X63.983 Y108.742 E0.01684
G1 X51.710 Y96.469 E0.54623
G1 X51.710 Y95.934 E0.01684
G1 X64.518 Y108.742 E0.57005
G1 X65.053 Y108.742 E0.01684
G1 X51.710 Y95.398 E0.59387
G1 X51.710 Y94.863 E0.01684
G1 X65.589 Y108.742 E0.61769
M73 P3 R29
G1 X66.124 Y108.742 E0.01684
G1 X51.710 Y94.328 E0.64151
G1 X51.710 Y93.793 E0.01684
G1 X66.659 Y108.742 E0.66533
G1 X67.194 Y108.742 E0.01684
G1 X51.710 Y93.257 E0.68915
G1 X51.710 Y92.722 E0.01684
G1 X67.730 Y108.742 E0.71298
G1 X68.265 Y108.742 E0.01684
G1 X51.710 Y92.187 E0.73680
G1 X51.710 Y91.652 E0.01684
G1 X68.800 Y108.742 E0.76062
G1 X69.335 Y108.742 E0.01684
G1 X51.710 Y91.117 E0.78444
G1 X51.710 Y90.581 E0.01684
G1 X69.871 Y108.742 E0.80826
G1 X70.406 Y108.742 E0.01684
G1 X51.710 Y90.046 E0.83208
G1 X51.710 Y89.511 E0.01684
G1 X70.941 Y108.742 E0.85590
G1 X71.476 Y108.742 E0.01684
G1 X51.710 Y88.976 E0.87972
G1 X51.710 Y88.440 E0.01684
G1 X72.012 Y108.742 E0.90354
G1 X72.547 Y108.742 E0.01684
G1 X51.710 Y87.905 E0.92737
G1 X51.710 Y87.370 E0.01684
G1 X73.082 Y108.742 E0.95119
G1 X73.617 Y108.742 E0.01684
G1 X51.710 Y86.835 E0.97501
G1 X51.710 Y86.299 E0.01684
G1 X74.152 Y108.742 E0.99883
G1 X74.688 Y108.742 E0.01684
G1 X51.710 Y85.764 E1.02265
G1 X51.710 Y85.229 E0.01684
G1 X75.223 Y108.742 E1.04647
G1 X75.758 Y108.742 E0.01684
G1 X51.710 Y84.694 E1.07029
G1 X51.710 Y84.158 E0.01684
G1 X76.293 Y108.742 E1.09411
G1 X76.829 Y108.742 E0.01684
G1 X51.710 Y83.623 E1.11793
G1 X51.710 Y83.088 E0.01684
G1 X77.364 Y108.742 E1.14175
G1 X77.899 Y108.742 E0.01684
G1 X51.710 Y82.553 E1.16558
G1 X51.710 Y82.017 E0.01684
G1 X78.434 Y108.742 E1.18940
G1 X78.970 Y108.742 E0.01684
G1 X51.710 Y81.482 E1.21322
G1 X51.710 Y80.947 E0.01684
G1 X79.505 Y108.742 E1.23704
G1 X80.040 Y108.742 E0.01684
G1 X51.710 Y80.412 E1.26086
G1 X51.710 Y79.876 E0.01684
G1 X80.575 Y108.742 E1.28468
G1 X81.111 Y108.742 E0.01684
G1 X51.710 Y79.341 E1.30850
G1 X51.710 Y78.806 E0.01684
G1 X81.646 Y108.742 E1.33232
G1 X82.181 Y108.742 E0.01684
G1 X51.710 Y78.271 E1.35614
G1 X51.710 Y77.735 E0.01684
G1 X82.716 Y108.742 E1.37997
G1 X83.236 Y108.726 E0.01635
G1 X51.710 Y77.200 E1.40307
G1 X51.710 Y76.665 E0.01684
G1 X83.626 Y108.581 E1.42043
G1 X83.771 Y108.444 E0.00627
G1 X83.866 Y108.286 E0.00581
G1 X51.710 Y76.130 E1.43112
G1 X51.710 Y75.595 E0.01684
G1 X83.970 Y107.855 E1.43576
M73 P7 R28
G1 X83.970 Y107.320 E0.01684
G1 X51.710 Y75.059 E1.43576
G1 X51.710 Y74.524 E0.01684
G1 X83.970 Y106.784 E1.43576
G1 X83.970 Y106.249 E0.01684
G1 X51.710 Y73.989 E1.43576
G1 X51.710 Y73.454 E0.01684
G1 X84.140 Y105.884 E1.44331
G1 F8640.000
G1 X80.067 Y101.811 E-1.33000
G1 E-0.07000 F2100.00000
G1 Z0.400 F10800.000
G1 X51.540 Y62.044
G1 Z0.200
G1 E1.40000 F2100.00000
G1 F1200.000
G1 X68.625 Y79.129 E0.76036
G1 X67.870 Y78.909 E0.02474
G1 X51.710 Y62.749 E0.71922
G1 X51.710 Y63.284 E0.01684
G1 X67.274 Y78.848 E0.69269
G1 X66.753 Y78.863 E0.01638
G1 X51.710 Y63.819 E0.66952
G1 X51.710 Y64.354 E0.01684
G1 X66.293 Y78.938 E0.64905
G1 X66.139 Y78.968 E0.00496
G1 X65.881 Y79.061 E0.00863
G1 X51.710 Y64.890 E0.63068
G1 X51.710 Y65.425 E0.01684
G1 X65.487 Y79.202 E0.61317
G1 X65.145 Y79.396 E0.01236
G1 X51.710 Y65.960 E0.59794
G1 X51.710 Y66.495 E0.01684
G1 X64.809 Y79.594 E0.58298
G1 X64.523 Y79.844 E0.01194
G1 X51.710 Y67.031 E0.57028
G1 X51.710 Y67.566 E0.01684
G1 X64.240 Y80.096 E0.55766
G1 X64.006 Y80.397 E0.01201
G1 X51.710 Y68.101 E0.54725
G1 X51.710 Y68.636 E0.01684
G1 X63.775 Y80.702 E0.53697
G1 X63.594 Y81.056 E0.01252
G1 X51.710 Y69.172 E0.52893
G1 X51.710 Y69.707 E0.01684
G1 X63.424 Y81.421 E0.52135
G1 X63.293 Y81.825 E0.01337
G1 X51.710 Y70.242 E0.51551
G1 X51.710 Y70.777 E0.01684
G1 X63.207 Y82.275 E0.51169
G1 X63.182 Y82.785 E0.01609
G1 X51.710 Y71.313 E0.51060
G1 X51.710 Y71.848 E0.01684
G1 X63.221 Y83.359 E0.51231
G1 X63.291 Y83.800 E0.01406
G1 X63.383 Y84.056 E0.00857
G1 X51.710 Y72.383 E0.51952
G1 X51.710 Y72.918 E0.01684
G1 X83.970 Y105.179 E1.43576
G1 X83.970 Y104.643 E0.01684
G1 X65.905 Y86.579 E0.80396
G1 X66.152 Y86.659 E0.00816
G1 X66.608 Y86.746 E0.01459
G1 X83.970 Y104.108 E0.77271
G1 X83.970 Y103.573 E0.01684
G1 X67.168 Y86.771 E0.74777
G1 X67.389 Y86.778 E0.00696
G1 X67.666 Y86.734 E0.00883
G1 X83.970 Y103.038 E0.72559
G1 X83.970 Y102.502 E0.01684
G1 X68.128 Y86.661 E0.70503
G1 X68.522 Y86.519 E0.01316
G1 X83.970 Y101.967 E0.68751
G1 X83.970 Y101.432 E0.01684
G1 X68.903 Y86.365 E0.67054
G1 X69.240 Y86.166 E0.01230
G1 X83.970 Y100.897 E0.65557
G1 X83.970 Y100.361 E0.01684
G1 X69.561 Y85.952 E0.64129
G1 X69.845 Y85.701 E0.01193
G1 X83.970 Y99.826 E0.62863
G1 X83.970 Y99.291 E0.01684
G1 X70.113 Y85.434 E0.61671
G1 X70.347 Y85.133 E0.01201
G1 X83.970 Y98.756 E0.60631
G1 X83.970 Y98.220 E0.01684
G1 X70.561 Y84.812 E0.59676
G1 X70.742 Y84.457 E0.01252
G1 X83.970 Y97.685 E0.58872
G1 X83.970 Y97.150 E0.01684
G1 X70.897 Y84.077 E0.58183
G1 X71.014 Y83.658 E0.01367
G1 X83.970 Y96.615 E0.57662
G1 X83.970 Y96.079 E0.01684
G1 X71.086 Y83.195 E0.57341
G1 X71.102 Y82.677 E0.01634
G1 X83.970 Y95.544 E0.57268
G1 X83.970 Y95.009 E0.01684
G1 X71.027 Y82.066 E0.57602
G1 X70.989 Y81.824 E0.00773
G1 X70.802 Y81.306 E0.01731
G1 X83.970 Y94.474 E0.58602
G1 X83.970 Y93.939 E0.01684
G1 X51.710 Y61.678 E1.43576
G1 X51.710 Y61.143 E0.01684
G1 X83.970 Y93.403 E1.43576
G1 X83.970 Y92.868 E0.01684
G1 X51.710 Y60.608 E1.43576
G1 X51.710 Y60.073 E0.01684
G1 X83.970 Y92.333 E1.43576
M73 P10 R27
G1 X83.970 Y91.798 E0.01684
G1 X51.710 Y59.537 E1.43576
G1 X51.710 Y59.002 E0.01684
G1 X83.970 Y91.262 E1.43576
G1 X83.970 Y90.727 E0.01684
G1 X51.710 Y58.467 E1.43576
G1 X51.710 Y57.932 E0.01684
G1 X83.970 Y90.192 E1.43576
G1 X83.970 Y89.657 E0.01684
G1 X51.710 Y57.396 E1.43576
G1 X51.710 Y56.861 E0.01684
G1 X83.970 Y89.121 E1.43576
G1 X83.970 Y88.586 E0.01684
G1 X51.710 Y56.326 E1.43576
G1 X51.710 Y55.791 E0.01684
G1 X83.970 Y88.051 E1.43576
G1 X83.970 Y87.516 E0.01684
G1 X51.710 Y55.255 E1.43576
G1 X51.710 Y54.720 E0.01684
G1 X83.970 Y86.980 E1.43576
G1 X83.970 Y86.445 E0.01684
G1 X51.710 Y54.185 E1.43576
G1 X51.710 Y53.650 E0.01684
G1 X83.970 Y85.910 E1.43576
G1 X83.970 Y85.375 E0.01684
G1 X51.710 Y53.114 E1.43576
G1 X51.710 Y52.579 E0.01684
G1 X83.970 Y84.839 E1.43576
G1 X83.970 Y84.304 E0.01684
G1 X51.710 Y52.044 E1.43576
G1 X51.710 Y51.509 E0.01684
G1 X83.970 Y83.769 E1.43576
G1 X83.970 Y83.234 E0.01684
G1 X51.710 Y50.973 E1.43576
G1 X51.710 Y50.438 E0.01684
G1 X83.970 Y82.698 E1.43576
G1 X83.970 Y82.163 E0.01684
G1 X51.710 Y49.903 E1.43576
G1 X51.710 Y49.368 E0.01684
G1 X83.970 Y81.628 E1.43576
G1 X83.970 Y81.093 E0.01684
G1 X51.710 Y48.833 E1.43576
G1 X51.710 Y48.297 E0.01684
G1 X83.970 Y80.558 E1.43576
G1 X83.970 Y80.022 E0.01684
G1 X51.710 Y47.762 E1.43576
G1 X51.710 Y47.227 E0.01684
G1 X83.970 Y79.487 E1.43576
G1 X83.970 Y78.952 E0.01684
G1 X51.710 Y46.692 E1.43576
G1 X51.710 Y46.156 E0.01684
G1 X83.970 Y78.417 E1.43576
M73 P13 R26
G1 X83.970 Y77.881 E0.01684
G1 X51.710 Y45.621 E1.43576
G1 X51.710 Y45.086 E0.01684
G1 X83.970 Y77.346 E1.43576
G1 X83.970 Y76.811 E0.01684
G1 X51.710 Y44.551 E1.43576
